!!!!SEGMENT: pl-wtm--r-1762--005_stefani-jozef--hans-jurga-zegnamy-was.krn
!!!cenid: 18xx:2036
!!!COM: Stefani, Józef
!!!COM-rismID:
!!!CDT: 1800/04/16-1876/03/19
!!!CNT: Polish
!!!OTL: Hans Jurga - Żegnamy Was
!!!PDT:
!!!AGN: Secular
!!!SMS-siglum: PL-Wtm
!!!SMS-shelfmark: R 1762
!!!SMS-shelfwork: W
!!!SMS-variant:
!!!SMS-altvar:
!!!NIFC-rismSourceID: 1001131405
!!!NIFC-islandoraID: pl-wtm:29283
!!!URL-pdf-islandora: https://repozytorium.nifc.pl/islandora/object/pl-wtm%3A29283/datastream/PDF/view
!!!URL-scan: https://polish.musicsources.pl/pl/lokalizacje/galeria/rekopisy/6494 @EN{Scan on Polish Music Herritage in Open Access Website} @PL{Skany w portalu Dziedzictwo Muzyki Polskiej w otwartym dostępie}
!!!ONB-nifc: UWAGA: No. 5., scena po Marcia, skany 0020-0023
!!!AIN: 1 cbass 1 cello 1 clars 2 cor 1 drumS 2 empty 1 fagot 1 flt 1 oboe 1 picco 2 tenor 1 timpa 1 tromp 2 tromt 1 viola 2 violn
!!!key:
**kern	**dynam	**kern	**text	**kern	**text	**kern	**text	**dynam	**kern	**dynam	**kern	**dynam	**kern	**dynam	**kern	**dynam	**kern	**dynam	**kern	**dynam	**kern	**kern	**dynam	**kern	**kern	**dynam	**kern	**dynam	**kern	**dynam	**kern	**dynam	**kern	**dynam	**kern	**dynam	**kern	**dynam
*part20	*part20	*part19	*part19	*part18	*part18	*part17	*part17	*part17	*part16	*part16	*part15	*part15	*part14	*part14	*part13	*part13	*part12	*part12	*part11	*part11	*part10	*part9	*part9	*part8	*part7	*part7	*part6	*part6	*part5	*part5	*part4	*part4	*part3	*part3	*part2	*part2	*part1	*part1
*staff20	*	*staff19	*staff19	*staff18	*staff18	*staff17	*staff17	*	*staff16	*	*staff15	*	*staff14	*	*staff13	*	*staff12	*	*staff11	*	*staff10	*staff9	*	*staff8	*staff7	*	*staff6	*	*staff5	*	*staff4	*	*staff3	*	*staff2	*	*staff1	*
*Icello&Icbass	*	*Iempty	*	*Itenor	*	*Itenor	*	*	*Iviola	*	*Ivioln	*	*Ivioln	*	*Itimpa	*	*IdrumS	*	*Iempty	*	*Itromt	*Itromt	*	*Itromp	*Ifagot	*	*Icor	*	*Icor	*	*Iclars	*	*Ioboe	*	*Ipicco	*	*Iflt	*
*I"Violoncelli et C: Baſsi	*	*I"Baſso	*	*I"Tenori	*	*I"Tenori	*	*	*I"Viola	*	*I"Violini	*	*I"Violini	*	*I"Timpani	*	*I"P: Tambour	*	*I"Banda	*	*I"Tromboni	*I"Tromboni	*	*I"Trombe	*I"Fagotti	*	*I"Corni in B	*	*I"Corni in Es	*	*I"Clarinetti in B.	*	*I"Oboe	*	*I"Picolo	*	*I"Flauto	*
*I'B.	*	*I'B	*	*I'T	*	*I'T	*	*	*I'Va	*	*I'Vl	*	*I'Vl	*	*I'Timp.	*	*I'Tamb	*	*I'Banda	*	*I'Trb	*I'Trb	*	*I'Tr-ba	*I'Fag.	*	*I'C. in B.	*	*I'C. in Es	*	*I'Cl. in B.	*	*I'Ob.	*	*I'Picc.	*	*I'Fl.	*
*clefF4	*	*clefF4	*	*clefGv2	*	*clefGv2	*	*	*clefC3	*	*clefG2	*	*clefG2	*	*clefF4	*	*clefF4	*	*clefF4	*	*clefF4	*clefC4	*	*clefG2	*clefF4	*	*clefG2	*	*clefG2	*	*clefG2	*	*clefG2	*	*clefG2	*	*clefG2	*
*ITrd0c0	*	*	*	*	*	*	*	*	*	*	*	*	*	*	*	*	*ITrd1c2	*	*ITrd1c2	*	*	*	*	*	*	*	*ITrd1c2	*	*ITrd-2c-3	*	*ITrd1c2	*	*	*	*ITrd0c0	*	*	*
*k[b-e-a-]	*	*k[b-e-a-]	*	*k[b-e-a-]	*	*k[b-e-a-]	*	*	*k[b-e-a-]	*	*k[b-e-a-]	*	*k[b-e-a-]	*	*k[b-e-a-]	*	*k[b-e-a-]	*	*k[b-e-a-]	*	*k[b-e-a-]	*k[b-e-a-]	*	*k[b-e-a-]	*k[b-e-a-]	*	*k[b-e-a-]	*	*k[b-e-a-]	*	*k[b-e-a-]	*	*k[b-e-a-]	*	*k[b-e-a-]	*	*k[b-e-a-]	*
*E-:	*	*E-:	*	*E-:	*	*E-:	*	*	*E-:	*	*E-:	*	*E-:	*	*E-:	*	*F:	*	*F:	*	*E-:	*E-:	*	*E-:	*E-:	*	*F:	*	*	*	*F:	*	*E-:	*	*E-:	*	*E-:	*
*M2/4	*	*M2/4	*	*M2/4	*	*M2/4	*	*	*M2/4	*	*M2/4	*	*M2/4	*	*M2/4	*	*M2/4	*	*M2/4	*	*M2/4	*M2/4	*	*M2/4	*M2/4	*	*M2/4	*	*M2/4	*	*M2/4	*	*M2/4	*	*M2/4	*	*M2/4	*
*	*below	*	*	*	*	*	*	*	*	*	*	*	*	*	*	*	*	*	*	*	*	*	*	*	*	*	*	*	*	*	*	*	*	*	*	*	*	*
*	*	*	*	*	*	*	*	*	*	*	*	*	*	*	*	*	*	*	*	*	*	*	*	*	*	*	*	*	*^	*	*^	*	*	*	*	*	*	*
8r	.	8r	.	8r	.	8r	.	.	8r	.	8r	.	8r	.	8r	.	8r	.	8r	.	8r	8r	.	8r	8G\	.	8r	.	8g/	8g\	.	8g/	8g\	p	8r	.	8r	.	8r	.
*	*	*	*	*	*	*	*	*	*	*	*	*	*	*	*	*	*	*	*	*	*	*	*	*	*	*	*	*	*v	*v	*	*	*	*	*	*	*	*	*	*
*	*	*	*	*	*	*	*	*	*	*	*	*	*	*	*	*	*	*	*	*	*	*	*	*	*	*	*	*	*	*	*v	*v	*	*	*	*	*	*	*
=1	=1	=1	=1	=1	=1	=1	=1	=1	=1	=1	=1	=1	=1	=1	=1	=1	=1	=1	=1	=1	=1	=1	=1	=1	=1	=1	=1	=1	=1	=1	=1	=1	=1	=1	=1	=1	=1	=1
!	!	!	!	!	!	!	!	!	!	!	!	!	!	!	!	!	!	!	!	!	!	!	!	!	!	!	!	!	!	!	!	!	!	!	!	!	!LO:TX:t=P:problem=adnotacja \ni dalej w ogień\nto ja zawołam "Anna"\nbywajcie zdrowi,\nbywajcie zdrowi.\nSierżant marsz Kamraci	!
!	!	!	!	!	!	!	!	!	!	!	!	!	!	!	!	!	!	!	!	!	!	!	!	!	!	!	!	!	!	!	!	!	!	!	!	!	!LO:TX:t=P:problem=skreślona adnotacja \nTurl&colon;l&colon; Pani feldfeber, należę do ciebie z duszą i ciałeml&colon;	!
2r	.	2r	.	2r	.	2r	.	.	2r	.	2r	.	2r	.	2r	.	2r	.	2r	.	2r	2r	.	2r	([4B-\	.	2r	.	([4b-/	.	[4b-\	.	2r	.	2r	.	2r	.
.	.	.	.	.	.	.	.	.	.	.	.	.	.	.	.	.	.	.	.	.	.	.	.	.	16B-\LL]	.	.	.	16b-/LL]	.	(16b-\LL]	.	.	.	.	.	.	.
.	.	.	.	.	.	.	.	.	.	.	.	.	.	.	.	.	.	.	.	.	.	.	.	.	16G\	.	.	.	16g/	.	16g\	.	.	.	.	.	.	.
.	.	.	.	.	.	.	.	.	.	.	.	.	.	.	.	.	.	.	.	.	.	.	.	.	16B-\	.	.	.	16b-/)	.	16b-\	.	.	.	.	.	.	.
.	.	.	.	.	.	.	.	.	.	.	.	.	.	.	.	.	.	.	.	.	.	.	.	.	16e-\JJ)	.	.	.	16ee-/JJ	<	16ee-\JJ)	.	.	.	.	.	.	.
=2	=2	=2	=2	=2	=2	=2	=2	=2	=2	=2	=2	=2	=2	=2	=2	=2	=2	=2	=2	=2	=2	=2	=2	=2	=2	=2	=2	=2	=2	=2	=2	=2	=2	=2	=2	=2	=2	=2
2r	.	2r	.	2r	.	2r	.	.	2r	.	2r	.	2r	.	2r	.	2r	.	2r	.	2r	2r	.	2r	(16B-\LL	.	2r	.	16b-/LL	.	(16b-\LL	.	2r	.	2r	.	2r	.
.	.	.	.	.	.	.	.	.	.	.	.	.	.	.	.	.	.	.	.	.	.	.	.	.	16G\	.	.	.	16g/	.	16g\	.	.	.	.	.	.	.
.	.	.	.	.	.	.	.	.	.	.	.	.	.	.	.	.	.	.	.	.	.	.	.	.	16B-\	.	.	.	16b-/	.	16b-\	.	.	.	.	.	.	.
.	.	.	.	.	.	.	.	.	.	.	.	.	.	.	.	.	.	.	.	.	.	.	.	.	16e-\JJ)	.	.	.	16ee-/JJ	.	16ee-\JJ	.	.	.	.	.	.	.
*	*	*	*	*	*	*	*	*	*	*	*	*	*	*	*	*	*	*	*	*	*	*	*	*	*rep	*	*	*	*rep	*	*	*	*	*	*	*	*	*
.	.	.	.	.	.	.	.	.	.	.	.	.	.	.	.	.	.	.	.	.	.	.	.	.	(16B-\LL	.	.	.	16b-/LL	.	16b-\LL	.	.	.	.	.	.	.
.	.	.	.	.	.	.	.	.	.	.	.	.	.	.	.	.	.	.	.	.	.	.	.	.	16G\	.	.	.	16g/	.	16g\	.	.	.	.	.	.	.
.	.	.	.	.	.	.	.	.	.	.	.	.	.	.	.	.	.	.	.	.	.	.	.	.	16B-\	.	.	.	16b-/	.	16b-\	.	.	.	.	.	.	.
.	.	.	.	.	.	.	.	.	.	.	.	.	.	.	.	.	.	.	.	.	.	.	.	.	16e-\JJ)	.	.	.	16ee-/JJ	.	16ee-\JJ)	.	.	.	.	.	.	.
*	*	*	*	*	*	*	*	*	*	*	*	*	*	*	*	*	*	*	*	*	*	*	*	*	*Xrep	*	*	*	*Xrep	*	*	*	*	*	*	*	*	*
=3	=3	=3	=3	=3	=3	=3	=3	=3	=3	=3	=3	=3	=3	=3	=3	=3	=3	=3	=3	=3	=3	=3	=3	=3	=3	=3	=3	=3	=3	=3	=3	=3	=3	=3	=3	=3	=3	=3
*	*	*	*	*	*	*	*	*	*	*	*	*	*	*	*	*	*	*	*^	*	*	*	*	*	*	*	*	*	*	*	*^	*	*	*	*	*	*	*
8r	.	2r	.	2r	.	2r	.	.	8r	.	8r	.	8r	.	8r	.	8r	.	8rB	4BB-\	.	8r	8r	.	8r	8d\ 8B-\	.	8r	.	8ff/ 8b-/	.	8dd/	8b-\	.	8r	.	8r	.	8r	.
.	.	.	.	.	.	.	.	.	.	.	.	.	.	f	.	.	.	.	.	.	.	.	.	.	.	.	f	.	.	.	f	.	.	.	.	.	.	.	.	f
*	*	*	*	*	*	*	*	*	*	*	*	*	*	*	*	*	*tremolo	*	*	*	*	*	*	*	*	*	*	*	*	*	*	*	*	*	*	*	*	*	*	*
.	f	.	.	.	.	.	.	.	.	.	.	.	.	.	.	.	.	.	.	.	.	.	.	.	.	.	.	.	.	.	.	.	.	.	.	.	.	.	.	.
16BB-/LL	.	.	.	.	.	.	.	.	16f\LL 16B-\	.	16dd/LL 16f/	.	16bb-\LL 16b-\	.	16BB-/LL	.	32BB-/LLL	.	16F/LL	.	.	16BB-/LL	16d\LL 16B-\	.	16b-/LL 16d/	16B-\LL 16BB-\	.	16dd\LL 16b-\	.	16ff/LL 16b-/	.	16ff\LL 16b-\	8ryy	.	16bb-\LL 16dd\	.	16bb-\LL	.	16ddd\LL	.
.	.	.	.	.	.	.	.	.	.	.	.	.	.	.	.	.	32BB-/	.	.	.	.	.	.	.	.	.	.	.	.	.	.	.	.	.	.	.	.	.	.	.
16BB-/JJ	.	.	.	.	.	.	.	.	16f\JJ 16B-\	.	16dd/JJ 16f/	.	16bb-\JJ 16b-\	.	16BB-/JJ	.	32BB-/	.	16F/JJ	.	.	16BB-/JJ	16d\JJ 16B-\	.	16b-/JJ 16d/	16B-\JJ 16BB-\	.	16dd\JJ 16b-\	.	16ff/JJ 16b-/	.	16ff\JJ 16b-\	.	.	16bb-\JJ 16dd\	.	16bb-\JJ	.	16ddd\JJ	.
.	.	.	.	.	.	.	.	.	.	.	.	.	.	.	.	.	32BB-/JJ	.	.	.	.	.	.	.	.	.	.	.	.	.	.	.	.	.	.	.	.	.	.	.
8BB-/L	.	.	.	.	.	.	.	.	8f\L 8B-\	.	8dd\L 8f\	.	8bb-\L 8b-\	.	8BB-/L	.	8BB-/	.	8F/L	4rDD	.	8BB-/L	8d\L 8B-\	.	8b-/L 8d/	8B-\L 8BB-\	.	8dd\L 8b-\	.	8ff/L 8b-/	.	8ff\L 8b-\	4ryy	.	8bb-\L 8dd\	.	8bb-\L	.	8ddd\L	.
8D/J	.	.	.	.	.	.	.	.	8f\J 8B-\	.	8ff\J 8b-\	.	8aa-\J 8b-\	.	8BB-/J	.	8BB-/J	.	8F/J	.	.	8D/J	8f\J 8A-\	.	8a-/J 8f/	8B-\J 8BB-\	.	8dd\J 8b-\	.	8ff/J 8b-/	.	8ff\J 8b-\	.	.	8aa-\J 8ff\	.	8aa-\J	.	8fff\J	.
=4	=4	=4	=4	=4	=4	=4	=4	=4	=4	=4	=4	=4	=4	=4	=4	=4	=4	=4	=4	=4	=4	=4	=4	=4	=4	=4	=4	=4	=4	=4	=4	=4	=4	=4	=4	=4	=4	=4	=4	=4
*	*	*	*	*	*	*	*	*	*	*	*	*	*	*	*	*	*	*	*	*	*	*	*	*	*	*^	*	*	*	*^	*	*	*	*	*	*	*	*	*	*
*	*	*	*	*	*	*	*	*	*	*	*	*	*	*	*	*	*	*	*tremolo	*	*	*	*	*	*	*	*	*	*	*	*	*	*	*	*	*	*	*	*	*	*	*
8E-/L	.	2r	.	2r	.	2r	.	.	8g\L 8B-\	.	8ee-\L	.	8gg\L 8b-\	.	8E-/L	.	8BB-/L	.	8F/L	4BB-\	.	8E-/L	8e-\L 8G\	.	8g/L 8e-/	8B-\L 8E-\	4.ryy	.	8ee-\L 8b-\	.	8gg\L 8ee-\	4.ryy	.	8ee-\L 8b-\	4.ryy	.	8gg\L 8ee-\	.	8gg\L	.	8eee-\L	.
8BB-/	.	.	.	.	.	.	.	.	8f\ 8B-\	.	8dd\	.	8ff\ 8b-\	.	8BB-/	.	32BB-/LL	.	8F/	.	.	8BB-/	8d\ 8F\	.	8dd/ 8f/	8A-\ 8BB-\	.	.	8dd\ 8b-\	.	8ff\ 8b-\	.	.	8dd\ 8b-\	.	.	8aa-\ 8ff\	.	8ff\	.	8ddd\J	.
.	.	.	.	.	.	.	.	.	.	.	.	.	.	.	.	.	32BB-/	.	.	.	.	.	.	.	.	.	.	.	.	.	.	.	.	.	.	.	.	.	.	.	.	.
.	.	.	.	.	.	.	.	.	.	.	.	.	.	.	.	.	32BB-/	.	.	.	.	.	.	.	.	.	.	.	.	.	.	.	.	.	.	.	.	.	.	.	.	.
.	.	.	.	.	.	.	.	.	.	.	.	.	.	.	.	.	32BB-/JJ	.	.	.	.	.	.	.	.	.	.	.	.	.	.	.	.	.	.	.	.	.	.	.	.	.
8E-/J	.	.	.	.	.	.	.	.	8g\J 8B-\	.	8ee-\J	.	8ee-\J 8g\	.	8E-/J	.	8BB-/J	.	8F/J	8BB-\	.	8E-/J	8e-\J 8G\	.	8ee-/J 8g/	8G\J 8E-\	.	.	8ee-\J 8b-\	.	8ee-\J 8g\	.	.	8ee-\J 8b-\	.	.	8gg\J 8ee-\	.	8ee-\J	.	8eee-\	.
*	*	*	*	*	*	*	*	*	*	*	*	*	*	*	*	*	*	*	*Xtremolo	*	*	*	*	*	*	*	*	*	*	*	*	*	*	*	*	*	*	*	*	*	*	*
8r	.	.	.	.	.	.	.	.	8r	.	8r	.	8r	.	8r	.	8r	.	8rB	8rDD	.	8r	8r	.	8r	8G/	8G\	.	8r	.	8g/	8g\	.	8g/	8g\	.	8r	.	8r	.	8r	.
*	*	*	*	*	*	*	*	*	*	*	*	*	*	*	*	*	*	*	*	*	*	*	*	*	*	*	*	*	*	*	*v	*v	*	*	*	*	*	*	*	*	*	*
*	*	*	*	*	*	*	*	*	*	*	*	*	*	*	*	*	*	*	*v	*v	*	*	*	*	*	*v	*v	*	*	*	*	*	*v	*v	*	*	*	*	*	*	*
!!LO:PB:g=original
=5	=5	=5	=5	=5	=5	=5	=5	=5	=5	=5	=5	=5	=5	=5	=5	=5	=5	=5	=5	=5	=5	=5	=5	=5	=5	=5	=5	=5	=5	=5	=5	=5	=5	=5	=5	=5	=5	=5
!	!	!	!	!	!	!	!	!	!	!	!	!	!	!	!	!	!	!	!	!	!	!	!	!	!	!	!	!	!	!	!	!LO:DY:rj	!	!	!	!	!	!
2r	.	2r	.	2r	.	2r	.	.	2r	.	2r	.	2r	.	2r	.	2r	.	2r	.	2r	2r	.	2r	([4B-\	p	2r	.	([4b-/	.	([4b-\	p	2r	.	2r	.	2r	.
.	.	.	.	.	.	.	.	.	.	.	.	.	.	.	.	.	.	.	.	.	.	.	.	.	16B-\LL]	.	.	.	16b-/LL]	.	16b-\LL]	.	.	.	.	.	.	.
.	.	.	.	.	.	.	.	.	.	.	.	.	.	.	.	.	.	.	.	.	.	.	.	.	16G\	.	.	.	16g/	.	16g\	.	.	.	.	.	.	.
.	.	.	.	.	.	.	.	.	.	.	.	.	.	.	.	.	.	.	.	.	.	.	.	.	16B-\	.	.	.	16b-/	.	16b-\	.	.	.	.	.	.	.
.	.	.	.	.	.	.	.	.	.	.	.	.	.	.	.	.	.	.	.	.	.	.	.	.	16e-\JJ)	.	.	.	16ee-/JJ)	.	16ee-\JJ)	<	.	.	.	.	.	.
=6	=6	=6	=6	=6	=6	=6	=6	=6	=6	=6	=6	=6	=6	=6	=6	=6	=6	=6	=6	=6	=6	=6	=6	=6	=6	=6	=6	=6	=6	=6	=6	=6	=6	=6	=6	=6	=6	=6
2r	.	2r	.	2r	.	2r	.	.	2r	.	2r	.	2r	.	2r	.	2r	.	2r	.	2r	2r	.	2r	(16B-\LL	<	2r	.	16b-/LL	.	(16b-\LL	.	2r	.	2r	.	2r	.
.	.	.	.	.	.	.	.	.	.	.	.	.	.	.	.	.	.	.	.	.	.	.	.	.	16G\	.	.	.	(16g/	.	16g\	.	.	.	.	.	.	.
.	.	.	.	.	.	.	.	.	.	.	.	.	.	.	.	.	.	.	.	.	.	.	.	.	16B-\	.	.	.	16b-/	.	16b-\	.	.	.	.	.	.	.
.	.	.	.	.	.	.	.	.	.	.	.	.	.	.	.	.	.	.	.	.	.	.	.	.	16e-\JJ	.	.	.	16ee-/JJ	.	16ee-\JJ	.	.	.	.	.	.	.
*	*	*	*	*	*	*	*	*	*	*	*	*	*	*	*	*	*	*	*	*	*	*	*	*	*rep	*	*	*	*	*	*rep	*	*	*	*	*	*	*
.	.	.	.	.	.	.	.	.	.	.	.	.	.	.	.	.	.	.	.	.	.	.	.	.	16B-\LL	.	.	.	16b-/LL	.	16b-\LL	.	.	.	.	.	.	.
.	.	.	.	.	.	.	.	.	.	.	.	.	.	.	.	.	.	.	.	.	.	.	.	.	16G\	.	.	.	16g/	.	16g\	.	.	.	.	.	.	.
.	.	.	.	.	.	.	.	.	.	.	.	.	.	.	.	.	.	.	.	.	.	.	.	.	16B-\	.	.	.	16b-/	.	16b-\	.	.	.	.	.	.	.
.	.	.	.	.	.	.	.	.	.	.	.	.	.	.	.	.	.	.	.	.	.	.	.	.	16e-\JJ	.	.	.	16ee-/JJ)	.	16ee-\JJ	.	.	.	.	.	.	.
*	*	*	*	*	*	*	*	*	*	*	*	*	*	*	*	*	*	*	*	*	*	*	*	*	*Xrep	*	*	*	*	*	*Xrep	*	*	*	*	*	*	*
=7	=7	=7	=7	=7	=7	=7	=7	=7	=7	=7	=7	=7	=7	=7	=7	=7	=7	=7	=7	=7	=7	=7	=7	=7	=7	=7	=7	=7	=7	=7	=7	=7	=7	=7	=7	=7	=7	=7
*	*	*	*	*	*	*	*	*	*	*	*	*	*	*	*	*	*	*	*^	*	*	*	*	*	*	*	*	*	*	*	*^	*	*	*	*	*	*	*
8r	.	2r	.	2r	.	2r	.	.	8r	.	8r	.	8r	f	8r	.	8r	.	8rB	4BB-\	.	8r	8r	.	8r	8d\ 8BB-\)	.	8r	.	8ff/ 8b-/	.	8dd/)	8b-\	.	8r	.	8r	.	8r	.
.	.	.	.	.	.	.	.	.	.	.	.	f	.	.	.	.	.	.	.	.	.	.	.	f	.	.	f	.	.	.	f	.	.	f	.	f	.	.	.	f
16B-\LL	f	.	.	.	.	.	.	.	16f\LL 16B-\	.	16dd/LL 16f/	.	16bb-\LL 16b-\	.	16BB-/LL	.	32BB-/LLL	.	16F/LL	.	.	16BB-/LL	16d\LL 16F\	.	16b-/LL 16d/	16d\LL 16BB-\	.	16dd\LL 16b-\	.	16ff/LL 16b-/	.	16ff\LL 16b-\	4.b-\yy	.	16bb-\LL 16dd\	.	16bb-\LL	.	16ddd\LL	.
.	.	.	.	.	.	.	.	.	.	.	.	.	.	.	.	.	32BB-/	.	.	.	.	.	.	.	.	.	.	.	.	.	.	.	.	.	.	.	.	.	.	.
16B-\JJ	.	.	.	.	.	.	.	.	16f\JJ 16B-\	.	16dd/JJ 16f/	.	16bb-\JJ 16b-\	.	16BB-/JJ	.	32BB-/	.	16F/JJ	.	.	16BB-/JJ	16d\JJ 16F\	.	16b-/JJ 16d/	16d\JJ 16BB-\	.	16dd\JJ 16b-\	.	16ff/JJ 16b-/	.	16ff\JJ 16b-\	.	.	16bb-\JJ 16dd\	.	16bb-\JJ	.	16ddd\JJ	.
.	.	.	.	.	.	.	.	.	.	.	.	.	.	.	.	.	32BB-/JJ	.	.	.	.	.	.	.	.	.	.	.	.	.	.	.	.	.	.	.	.	.	.	.
!LO:TX:t=P:problem=mixed beam	!	!	!	!	!	!	!	!	!	!	!	!	!	!	!	!	!	!	!	!	!	!	!	!	!	!	!	!	!	!	!	!	!	!	!	!	!	!	!	!
8B-\L	.	.	.	.	.	.	.	.	8f\L 8B-\	.	8dd/L 8f/	.	8bb-\L 8b-\	.	8BB-/L	.	8BB-/	.	8F/L	4rDD	.	8BB-/L	8d\L 8F\	.	8b-/L 8d/	8d\L 8BB-\	.	8dd\L 8b-\	.	8ff/L 8b-/	.	8ff\L 8b-\	.	.	8bb-\L 8dd\	.	8bb-\L	.	8ddd\L	.
8BB-/J	.	.	.	.	.	.	.	.	8f\J 8B-\	.	8f/J 8B-/	.	8dd\J	.	8BB-/J	.	8BB-/J	.	8F/J	.	.	8BB-/J	8d\J 8F\	.	8dd/J 8f/	8d\J 8BB-\	.	8dd\J 8b-\	.	8ff/J 8b-/	.	8ff\J 8b-\	.	.	8bb-\J 8dd\	.	8ddd\J	.	8ddd\J	.
*	*	*	*	*	*	*	*	*	*	*	*	*	*	*	*	*	*	*	*	*	*	*	*	*	*	*	*	*	*	*	*	*v	*v	*	*	*	*	*	*	*
=8	=8	=8	=8	=8	=8	=8	=8	=8	=8	=8	=8	=8	=8	=8	=8	=8	=8	=8	=8	=8	=8	=8	=8	=8	=8	=8	=8	=8	=8	=8	=8	=8	=8	=8	=8	=8	=8	=8	=8
*	*	*	*	*	*	*	*	*	*	*	*	*	*	*	*	*	*	*	*	*	*	*	*^	*	*	*^	*	*	*	*^	*	*	*	*	*	*	*	*	*
!	!	!	!	!	!	!	!	!	!	!	!	!	!	!	!LO:TX:t=P:problem=mixed beam	!	!	!	!	!	!	!LO:TX:t=P:problem=mixed beam	!	!	!	!	!	!	!	!	!	!	!	!	!	!	!	!	!	!	!	!
*	*	*	*	*	*	*	*	*	*	*	*	*	*	*	*	*	*	*	*tremolo	*	*	*	*	*	*	*	*	*	*	*	*	*	*	*	*	*	*	*	*	*	*	*
8E-\L	.	4r	.	4r	.	4r	.	.	8g\L 8B-\	.	8g/L 8B-/	.	8ee-\L	.	8E-\L	.	32BB-/LLL	.	8F/L	4BB-\	.	8E-\L	8e-\L 8G\	4.ryy	.	8ee-/L 8g/	8e-\L 8E-\	4.ryy	.	8ee-\L 8b-\	.	8gg\L 8ee-\	4.ryy	.	8gg\L 8b-\	.	8gg\L 8ee-\	.	8eee-\L	.	8eee-\L	.
.	.	.	.	.	.	.	.	.	.	.	.	.	.	.	.	.	32BB-/	.	.	.	.	.	.	.	.	.	.	.	.	.	.	.	.	.	.	.	.	.	.	.	.	.
.	.	.	.	.	.	.	.	.	.	.	.	.	.	.	.	.	32BB-/	.	.	.	.	.	.	.	.	.	.	.	.	.	.	.	.	.	.	.	.	.	.	.	.	.
.	.	.	.	.	.	.	.	.	.	.	.	.	.	.	.	.	32BB-/JJ	.	.	.	.	.	.	.	.	.	.	.	.	.	.	.	.	.	.	.	.	.	.	.	.	.
8F\J	.	.	.	.	.	.	.	.	8f\ 8c\	.	8e-/ 8c/	.	8an\	.	8E-\	.	8BB-/	.	8F/	.	.	8F\	8e-\ 8An\	.	.	8an/ 8e-/	8c\J 8F\	.	.	8cc\J 8f\	.	8ff\ 8ee-\	.	.	8ff\ 8cc\	.	8aan\ 8ff\	.	8aan\	.	8eee-\	.
8BB-/	.	8r	.	8r	.	8r	.	.	8f\J 8B-\	.	8d/J 8B-/	.	8b-\J	.	8BB-/J	.	8BB-/J	.	8F/J	8BB-\	.	8BB-/J	8d\J 8B-\	.	.	8b-/J 8d/	8d\ 8BB-\	.	.	8b-/ 8d/	.	8ff\J 8b-\	.	.	8ff\J 8dd\	.	8bb-\J 8dd\	.	8bb-\J	.	8ddd\J	.
*	*	*	*	*	*	*	*	*	*	*	*	*	*	*	*	*	*	*	*Xtremolo	*	*	*	*	*	*	*	*	*	*	*	*	*	*	*	*	*	*	*	*	*	*	*
8r	.	8BB-/	Że-	8c\	.	8c\	Że-	.	8r	.	8r	.	8r	.	8r	.	8r	.	8rB	8rDD	.	8BB-/	8B-/	8B-\	.	8r	8BB-/	8BB-\	.	8r	.	8b-/	8b-\	.	8r	.	8r	.	8r	.	8r	.
*	*	*	*	*	*	*	*	*	*	*	*	*	*	*	*	*	*	*	*v	*v	*	*	*v	*v	*	*	*v	*v	*	*	*	*v	*v	*	*	*	*	*	*	*	*	*
=9	=9	=9	=9	=9	=9	=9	=9	=9	=9	=9	=9	=9	=9	=9	=9	=9	=9	=9	=9	=9	=9	=9	=9	=9	=9	=9	=9	=9	=9	=9	=9	=9	=9	=9	=9	=9	=9	=9
!	!	!	!	!	!	!	!	!	!	!	!	!	!	!	!	!	!	!	!	!	!	!	!LO:DY:rj	!	!	!	!	!	!	!	!	!	!	!	!	!	!	!
2r	.	4E-\	-gna-	4A-/	.	4f\	-gna-	.	2r	.	2r	.	2r	.	2r	.	2r	.	2r	.	4E-\	4e-\ 4G\	p	2r	4E-\	p	2r	.	4ee-/ 4g/	p	2r	.	2r	.	2r	.	2r	.
.	.	4D\	-my	4c\	.	4g\	-my	.	.	.	.	.	.	.	.	.	.	.	.	.	4D\	4f\ 4B-\	.	.	4D\	.	.	.	4ff/ 4b-/	.	.	.	.	.	.	.	.	.
=10	=10	=10	=10	=10	=10	=10	=10	=10	=10	=10	=10	=10	=10	=10	=10	=10	=10	=10	=10	=10	=10	=10	=10	=10	=10	=10	=10	=10	=10	=10	=10	=10	=10	=10	=10	=10	=10	=10
2r	.	4E-\	was	4c\	.	4a-\	was	.	2r	.	2r	.	2r	.	2r	.	2r	.	2r	.	4E-\	4g\ 4B-\	.	2r	4E-\	.	2r	.	4gg/ 4b-/	.	2r	.	2r	.	2r	.	2r	.
.	.	8r	.	8r	.	8r	.	.	.	.	.	.	.	.	.	.	.	.	.	.	8r	8r	.	.	8r	.	.	.	8r	.	.	.	.	.	.	.	.	.
.	.	8E-\	że-	8c\	.	8a-\	Że-	.	.	.	.	.	.	.	.	.	.	.	.	.	8E-\	8g\ 8B-\	.	.	8E-\	.	.	.	8gg/ 8b-/	.	.	.	.	.	.	.	.	.
!!LO:PB:g=original
=11	=11	=11	=11	=11	=11	=11	=11	=11	=11	=11	=11	=11	=11	=11	=11	=11	=11	=11	=11	=11	=11	=11	=11	=11	=11	=11	=11	=11	=11	=11	=11	=11	=11	=11	=11	=11	=11	=11
2r	.	4BB-/	-gna-	(8.B-/L	.	(8.g\L	-gna-	.	2r	.	2r	.	2r	.	2r	.	2r	.	2r	.	4BB-/	(8.f\L 8.A-\	.	2r	4BB-/	.	2r	.	(>8.ff/L 8.a-/	.	2ryy	.	2ryy	.	2ryy	.	2ryy	.
.	.	.	.	16A-/Jk)	.	16fn\Jk)	.	.	.	.	.	.	.	.	.	.	.	.	.	.	.	16en\Jk 16G\)	.	.	.	.	.	.	16eeX/Jk 16g/)	.	.	.	.	.	.	.	.	.
.	.	4BB-/	-my	(8B-/L	.	(8g\L	-my	.	.	.	.	.	.	.	.	.	.	.	.	.	4BB-/	(8f\L 8A-\	.	.	4BB-/	.	.	.	(8ff/L 8a-/	.	.	.	.	.	.	.	.	.
.	.	.	.	8c/J)	.	8a-\J)	.	.	.	.	.	.	.	.	.	.	.	.	.	.	.	8g\J 8B-\)	.	.	.	.	.	.	8gg/J 8b-/)	.	.	.	.	.	.	.	.	.
=12	=12	=12	=12	=12	=12	=12	=12	=12	=12	=12	=12	=12	=12	=12	=12	=12	=12	=12	=12	=12	=12	=12	=12	=12	=12	=12	=12	=12	=12	=12	=12	=12	=12	=12	=12	=12	=12	=12
*	*	*	*	*	*	*	*	*	*	*	*	*	*	*	*	*	*	*	*	*	*	*	*	*	*^	*	*	*	*	*	*	*	*	*	*	*	*	*
2r	.	4E-\	was	4A-/	.	4f\	was	.	2ryy	.	2ryy	.	2ryy	.	2ryy	.	2ryy	.	2ryy	.	4E-\	4e-/ 4G/	.	2r	4E-\	4.ryy	.	2r	.	4ee-/ 4g/	.	2ryy	.	2ryy	.	2ryy	.	2ryy	.
.	.	8r	.	8r	.	8r	.	.	.	.	.	.	.	.	.	.	.	.	.	.	4r	4r	.	.	8r	.	.	.	.	8r	.	.	.	.	.	.	.	.	.
*	*	*	*	*	*	*	*	*	*	*	*	*	*	*	*	*	*	*	*	*	*	*	*	*	*	*	*	*	*	*^	*	*	*	*	*	*	*	*	*
.	.	8B-\	Już	8c\	.	8c\	Już	.	.	.	.	.	.	.	.	.	.	.	.	.	.	.	.	.	8B-/	8BB-\	.	.	.	8b-/	8b-\	.	.	.	.	.	.	.	.	.
*	*	*	*	*	*	*	*	*	*	*	*	*	*	*	*	*	*	*	*	*	*	*	*	*	*	*	*	*	*	*v	*v	*	*	*	*	*	*	*	*	*
=13	=13	=13	=13	=13	=13	=13	=13	=13	=13	=13	=13	=13	=13	=13	=13	=13	=13	=13	=13	=13	=13	=13	=13	=13	=13	=13	=13	=13	=13	=13	=13	=13	=13	=13	=13	=13	=13	=13	=13
2r	.	8.E-\	mo-	8.A-/	.	8.f\	mo-	.	2ryy	.	2ryy	.	2ryy	.	2ryy	.	2ryy	.	2ryy	.	2r	2r	.	2r	8.e-\L 8.E-\	4ryy	.	2r	.	8.ee-/L 8.g/	.	2ryy	.	2ryy	.	2ryy	.	2ryy	.
.	.	16E-\	-że	16A-/	.	16f\	-że	.	.	.	.	.	.	.	.	.	.	.	.	.	.	.	.	.	16e-\Jk 16E-\	.	.	.	.	16ee-/Jk 16g/	.	.	.	.	.	.	.	.	.
*	*	*	*	*	*	*	*	*	*	*	*	*	*	*	*	*	*	*	*	*	*	*	*	*	*	*tremolo	*	*	*	*	*	*	*	*	*	*	*	*	*
.	.	16D\	nie	16c\	.	16g\	nie	.	.	.	.	.	.	.	.	.	.	.	.	.	.	.	.	.	(16f'/LL	16D\LL	.	.	.	16b-/LL	.	.	.	.	.	.	.	.	.
.	.	16D\	zo-	16c\	.	16fn\	zo-	.	.	.	.	.	.	.	.	.	.	.	.	.	.	.	.	.	16en'/)	16D\	.	.	.	16b-/	.	.	.	.	.	.	.	.	.
.	.	16D\	-ba-	16c\	.	16g\	-ba-	.	.	.	.	.	.	.	.	.	.	.	.	.	.	.	.	.	16f'/	16D\	.	.	.	16b-/	.	.	.	.	.	.	.	.	.
.	.	16D\	-czem	16c\	.	16b-\	-czem-	.	.	.	.	.	.	.	.	.	.	.	.	.	.	.	.	.	16a-'/JJ	16D\JJ	.	.	.	16b-/JJ	.	.	.	.	.	.	.	.	.
*	*	*	*	*	*	*	*	*	*	*	*	*	*	*	*	*	*	*	*	*	*	*	*	*	*	*Xtremolo	*	*	*	*	*	*	*	*	*	*	*	*	*
=14	=14	=14	=14	=14	=14	=14	=14	=14	=14	=14	=14	=14	=14	=14	=14	=14	=14	=14	=14	=14	=14	=14	=14	=14	=14	=14	=14	=14	=14	=14	=14	=14	=14	=14	=14	=14	=14	=14	=14
2r	.	4E-\	się	4c\	.	4a-\	-się	.	2ryy	.	2ryy	.	2ryy	.	2ryy	.	2ryy	.	2ryy	.	4r	4r	.	2r	4g/	4E-\	.	2r	.	4b-/ 4e-/	.	2ryy	.	2ryy	.	2ryy	.	2ryy	.
.	.	8r	.	8r	.	8r	.	.	.	.	.	.	.	.	.	.	.	.	.	.	8r	8r	.	.	8r	4ryy	.	.	.	4r	.	.	.	.	.	.	.	.	.
*	*	*	*	*	*	*	*	*	*	*	*	*	*	*	*	*	*	*	*	*	*	*	*	*	*clefC4	*	*	*	*	*	*	*	*	*	*	*	*	*	*
.	.	8E-\	.	8f\	.	8a-\	nie-	.	.	.	.	.	.	.	.	.	.	.	.	.	8E-\	8g\ 8e-\	.	.	8g\ 8e-\	.	.	.	.	.	.	.	.	.	.	.	.	.	.
=15	=15	=15	=15	=15	=15	=15	=15	=15	=15	=15	=15	=15	=15	=15	=15	=15	=15	=15	=15	=15	=15	=15	=15	=15	=15	=15	=15	=15	=15	=15	=15	=15	=15	=15	=15	=15	=15	=15	=15
*	*	*	*	*	*	*	*	*	*	*	*	*	*	*	*	*	*	*	*	*	*	*^	*	*	*	*	*	*	*	*	*	*	*	*	*	*	*	*	*
*	*	*	*	*	*	*	*	*	*	*	*	*	*	*	*	*	*	*	*	*	*tremolo	*	*	*	*	*	*	*	*	*	*	*	*	*	*	*	*	*	*	*
2r	.	16F\	.	16e-\	.	16g\	-bacz-	.	2ryy	.	2ryy	.	2ryy	.	2ryy	.	2ryy	.	2ryy	.	16F'\LL	16f\LL 16d'\	4ryy	.	2r	16f\LL 16d\	4ryy	.	16f/LL	.	2r	.	2ryy	.	2ryy	.	2ryy	.	2ryy	.
.	.	16F\	.	16e-\	.	16g\	-my	.	.	.	.	.	.	.	.	.	.	.	.	.	16F'\	16f\ 16d'\	.	.	.	16f\ 16d\	.	.	16f/	.	.	.	.	.	.	.	.	.	.	.
.	.	16F\	.	16d\	.	16f\	na	.	.	.	.	.	.	.	.	.	.	.	.	.	16F'\	16e-\ 16c'\	.	.	.	16e-\ 16c\	.	.	16f/	.	.	.	.	.	.	.	.	.	.	.
.	.	16F\	.	16c\	.	16e-\	ten	.	.	.	.	.	.	.	.	.	.	.	.	.	16F'\JJ	16d\JJ 16B-'\	.	.	.	16d\JJ 16B-\	.	.	16f/JJ	.	.	.	.	.	.	.	.	.	.	.
*	*	*	*	*	*	*	*	*	*	*	*	*	*	*	*	*	*	*	*	*	*Xtremolo	*	*	*	*	*	*	*	*	*	*	*	*	*	*	*	*	*	*	*
!	!	!	!	!	!	!	!	!	!	!	!	!	!	!	!	!	!	!	!	!	!LO:TX:t=P:problem=mixed beam	!	!	!	!	!LO:TX:t=P:problem=mixed beam	!	!	!	!	!	!	!	!	!	!	!	!	!	!
.	.	8F\	.	8c\	.	8d\	Kró-	.	.	.	.	.	.	.	.	.	.	.	.	.	8F\L	8c/L	8B-\L	.	.	8c/L	8B-\L	.	8f/L	.	.	.	.	.	.	.	.	.	.	.
.	.	8F\	.	8Bn\	.	8g\	-tki	.	.	.	.	.	.	.	.	.	.	.	.	.	8FF/J	8f/J	8An\J	.	.	8f/J	8An\J	.	8f/J	.	.	.	.	.	.	.	.	.	.	.
!!LO:PB:g=original
=16	=16	=16	=16	=16	=16	=16	=16	=16	=16	=16	=16	=16	=16	=16	=16	=16	=16	=16	=16	=16	=16	=16	=16	=16	=16	=16	=16	=16	=16	=16	=16	=16	=16	=16	=16	=16	=16	=16	=16	=16
*	*	*	*	*	*	*	*	*	*	*	*	*	*	*	*	*	*	*	*	*	*	*	*	*	*	*	*	*	*	*	*^	*	*^	*	*	*	*	*	*	*
2r	.	4B-\	czas	4c\	.	4c\	.	.	2ryy	.	2ryy	.	2ryy	.	2ryy	.	2ryy	.	2ryy	.	4BB-/	4B-/	4B-\	.	2r	4B-/	4B-\	.	4b-/ 4B-/	.	4r	4reyy	.	4r	4rByy	.	2ryy	.	2ryy	.	2ryy	.
.	.	8r	.	8r	.	8r	.	.	.	.	.	.	.	.	.	.	.	.	.	.	8r	8r	8rBByy	.	.	8r	4ryy	.	8r	.	8r	8reyy	.	8r	8rByy	.	.	.	.	.	.	.
.	.	8BB-/	Spo-	8c\	.	8c\	.	.	.	.	.	.	.	.	.	.	.	.	.	.	8BB-/	8B-/	8B-\	.	.	8F/	.	.	8b-/ 8B-/	.	8b-/	8b-\	.	8b-/	8b-\	.	.	.	.	.	.	.
*	*	*	*	*	*	*	*	*	*	*	*	*	*	*	*	*	*	*	*	*	*	*	*	*	*	*v	*v	*	*	*	*	*	*	*	*	*	*	*	*	*	*	*
=17	=17	=17	=17	=17	=17	=17	=17	=17	=17	=17	=17	=17	=17	=17	=17	=17	=17	=17	=17	=17	=17	=17	=17	=17	=17	=17	=17	=17	=17	=17	=17	=17	=17	=17	=17	=17	=17	=17	=17	=17	=17
2r	.	8.BB-/	-tka-	8.g\	.	8.b-\	.	.	2ryy	.	2ryy	.	2ryy	.	2ryy	.	2ryy	.	2ryy	.	8.BB-/L	8.a-\L 8.f\	4.ryy	.	2r	8.F/L	.	8.b-/L 8.B-/	.	8.aa-\L 8.ff\	4.ryy	.	8.aa-\L 8.ff\	4.ryy	.	2ryy	.	2ryy	.	2ryy	.
.	.	16BB-/	-my	16f\	.	16a-\	.	.	.	.	.	.	.	.	.	.	.	.	.	.	16BB-/Jk	16g\Jk 16e-\	.	.	.	16F/Jk	.	16b-/Jk 16B-/	.	16gg\Jk 16ee-\	.	.	16gg\Jk 16ee-\	.	.	.	.	.	.	.	.
.	.	8BB-/	się	8e-\	.	8g\	.	.	.	.	.	.	.	.	.	.	.	.	.	.	8BB-/	8f\ 8d\	.	.	.	8F/	.	8b-/L 8B-/	.	8ff\ 8b-\	.	.	8ff\ 8dd\	.	.	.	.	.	.	.	.
.	.	8BB-/	Wszak	8c\	.	8c\	.	.	.	.	.	.	.	.	.	.	.	.	.	.	8BB-/	8B-/	8B-\	.	.	8f\	.	8b-/J 8B-/	.	8b-/	8b-\	.	8b-/	8b-\	.	.	.	.	.	.	.
*	*	*	*	*	*	*	*	*	*	*	*	*	*	*	*	*	*	*	*	*	*	*v	*v	*	*	*	*	*	*	*	*	*	*	*	*	*	*	*	*	*	*
=18	=18	=18	=18	=18	=18	=18	=18	=18	=18	=18	=18	=18	=18	=18	=18	=18	=18	=18	=18	=18	=18	=18	=18	=18	=18	=18	=18	=18	=18	=18	=18	=18	=18	=18	=18	=18	=18	=18	=18	=18
2r	.	8.E-\	wie-	8.A-/	.	8.f\	.	.	2ryy	.	2ryy	.	2ryy	.	2ryy	.	2ryy	.	2ryy	.	8.E-\L	8.g\L 8.e-\	.	2r	8.B-\L	.	8.b-/L 8.e-/	.	8.ee-/L 8.g/	4ryy	.	8.ee-/L	8.b-\L	.	2ryy	.	2ryy	.	2ryy	.
.	.	16D\	-cie	16c\	.	16g\	.	.	.	.	.	.	.	.	.	.	.	.	.	.	16D\Jk	16f\Jk 16B-\	.	.	16A-\Jk	.	16b-/Jk 16d/	.	16ff/Jk 16b-/	.	.	16ff/Jk	16b-\Jk	.	.	.	.	.	.	.
.	.	8E-\	gdzie	8c\	.	8a-\	.	.	.	.	.	.	.	.	.	.	.	.	.	.	8E-\	8e-/ 8G/	.	.	8B-\	.	8b-/ 8e-/	.	8gg/	8ee-\	.	8gg/	8b-\	.	.	.	.	.	.	.
.	.	8AA-/	I	(16d\LL	.	8g\	.	.	.	.	.	.	.	.	.	.	.	.	.	.	8r	8r	.	.	8e-\ 8E-\	.	8r	.	8ff/	16cc\LL	.	8ff/	16cc\LL	.	.	.	.	.	.	.
.	.	.	.	16B-\JJ)	.	.	.	.	.	.	.	.	.	.	.	.	.	.	.	.	.	.	.	.	.	.	.	.	.	16a-\JJ	.	.	16a-\JJ	.	.	.	.	.	.	.
*	*	*	*	*	*	*	*	*	*	*	*	*	*	*	*	*	*	*	*	*	*	*	*	*	*	*	*	*	*v	*v	*	*	*	*	*	*	*	*	*	*
*	*	*	*	*	*	*	*	*	*	*	*	*	*	*	*	*	*	*	*	*	*	*	*	*	*	*	*	*	*	*	*v	*v	*	*	*	*	*	*	*
=19	=19	=19	=19	=19	=19	=19	=19	=19	=19	=19	=19	=19	=19	=19	=19	=19	=19	=19	=19	=19	=19	=19	=19	=19	=19	=19	=19	=19	=19	=19	=19	=19	=19	=19	=19	=19	=19	=19
2r	.	8.BB-/	Bóg	8.A-/	.	8.f\	.	.	2ryy	.	2ryy	.	2ryy	.	2ryy	.	2ryy	.	2ryy	.	2r	2r	.	2r	8.f\L 8.F\	.	2r	.	8.ee-/L 8.g/	.	8.ee-/L 8.g/	.	2ryy	.	2ryy	.	2ryy	.
.	.	16BB-/	po-	16A-/	.	16c\	.	.	.	.	.	.	.	.	.	.	.	.	.	.	.	.	.	.	16f\Jk 16F\	.	.	.	16b-/Jk 16g/	.	16b-/Jk 16g/	.	.	.	.	.	.	.
.	.	8AA-/	-cie-	8B-/	.	8d\	.	.	.	.	.	.	.	.	.	.	.	.	.	.	.	.	.	.	8e-\L 8E-\	.	.	.	8cc/L 8a-/	.	8cc/L 8a-/	.	.	.	.	.	.	.
.	.	8BB-/	-szy	8G/	.	8e-\	.	.	.	.	.	.	.	.	.	.	.	.	.	.	.	.	.	.	8f\J 8F\	.	.	.	8dd/J 8f/	.	8dd/J 8f/	.	.	.	.	.	.	.
=20	=20	=20	=20	=20	=20	=20	=20	=20	=20	=20	=20	=20	=20	=20	=20	=20	=20	=20	=20	=20	=20	=20	=20	=20	=20	=20	=20	=20	=20	=20	=20	=20	=20	=20	=20	=20	=20	=20
2r	.	4E-\	nas	4A-/	.	4f\	.	.	2ryy	.	2ryy	.	2ryy	.	2ryy	.	2ryy	.	2ryy	.	4r	2r	.	2r	4f\ 4B-\	.	2r	.	4ee-/ 4g/	.	4ee-/ 4g/	.	2ryy	.	2ryy	.	2ryy	.
.	.	8r	.	4r	.	4r	.	.	.	.	.	.	.	.	.	.	.	.	.	.	8r	.	.	.	4r	.	.	.	8r	.	4r	.	.	.	.	.	.	.
.	.	8BB-/	I	.	.	.	.	.	.	.	.	.	.	.	.	.	.	.	.	.	8BB-/	.	.	.	.	.	.	.	8b-/ 8B-/	.	.	.	.	.	.	.	.	.
!!LO:PB:g=original
=21	=21	=21	=21	=21	=21	=21	=21	=21	=21	=21	=21	=21	=21	=21	=21	=21	=21	=21	=21	=21	=21	=21	=21	=21	=21	=21	=21	=21	=21	=21	=21	=21	=21	=21	=21	=21	=21	=21
2r	.	[4BB-/	Bóg	4r	.	4r	.	.	2r	.	2r	.	2r	.	2r	.	2r	.	2r	.	[4BB-/	4r	.	2r	4r	.	2r	.	[4b-/ [4B-/	.	2r	.	2r	.	2r	.	2r	.
.	.	16BB-/]	.	16r	.	16r	.	.	.	.	.	.	.	.	.	.	.	.	.	.	16BB-/LL]	16r	.	.	16r	.	.	.	16b-/]LL 16B-/]	.	.	.	.	.	.	.	.	.
.	.	16BB-/	po-	16B-/	.	16g\	.	.	.	.	.	.	.	.	.	.	.	.	.	.	16BB-'/	16f\LL 16A-\	.	.	(16f\LL 16A-'\	.	.	.	(>16b-/ 16B-'/	.	.	.	.	.	.	.	.	.
.	.	16BB-/	-cie-	16A-/	.	16f\	.	.	.	.	.	.	.	.	.	.	.	.	.	.	16BB-'/	16e-\ 16G\	.	.	16e-\ 16G'\	.	.	.	16b-/ 16B-'/	.	.	.	.	.	.	.	.	.
.	.	16BB-/	-szy	16G/	.	16e-\	.	.	.	.	.	.	.	.	.	.	.	.	.	.	16BB-'/JJ	16d\JJ 16F\	.	.	16d\JJ 16F'\)	.	.	.	16b-/JJ 16B-'/)	.	.	.	.	.	.	.	.	.
=22	=22	=22	=22	=22	=22	=22	=22	=22	=22	=22	=22	=22	=22	=22	=22	=22	=22	=22	=22	=22	=22	=22	=22	=22	=22	=22	=22	=22	=22	=22	=22	=22	=22	=22	=22	=22	=22	=22
2r	.	4E-\	nas	4A-/	.	4f\	.	.	2r	.	2r	.	2r	.	2r	.	2r	.	2r	.	4E-\	4e-\ 4G\	.	2r	4e-\ 4G\	.	2r	.	8b-/L 8e-/	.	2r	.	2r	.	2r	.	2r	.
.	.	.	.	.	.	.	.	.	.	.	.	.	.	.	.	.	.	.	.	.	.	.	.	.	.	.	.	.	16b-/L 16B-/	.	.	.	.	.	.	.	.	.
.	.	.	.	.	.	.	.	.	.	.	.	.	.	.	.	.	.	.	.	.	.	.	.	.	.	.	.	.	16b-/JJ 16B-/	.	.	.	.	.	.	.	.	.
.	.	4r	.	(8.f\L	I	4r	.	.	.	.	.	.	.	.	.	.	.	.	.	.	4r	4r	.	.	4r	.	.	.	8.ee-/L 8.e-/	.	.	.	.	.	.	.	.	.
.	.	.	.	16A-\Jk)	.	.	.	.	.	.	.	.	.	.	.	.	.	.	.	.	.	.	.	.	.	.	.	.	16g/Jk	.	.	.	.	.	.	.	.	.
=23	=23	=23	=23	=23	=23	=23	=23	=23	=23	=23	=23	=23	=23	=23	=23	=23	=23	=23	=23	=23	=23	=23	=23	=23	=23	=23	=23	=23	=23	=23	=23	=23	=23	=23	=23	=23	=23	=23
*	*	*	*	*	*	*	*	*	*	*	*	*	*	*	*	*	*	*	*^	*	*	*^	*	*	*^	*	*	*	*	*	*	*	*	*	*	*	*	*
4r	.	4r	.	[4c\	Bóg	4r	.	.	4r	.	4r	.	4r	.	4r	.	4r	.	4r	4rDDyy	.	4r	4r	4rBByy	.	4r	4r	4rBByy	.	4r	.	[>4b-/	.	4r	.	4r	.	4r	.	4r	.
8.r	.	16r	.	16c\]	.	16r	.	.	8.r	.	8.r	.	8.r	.	8.r	.	8.r	.	8.r	8.rDDyy	.	16r	16r	16rBByy	f	8.r	16r	16rBByy	f	8.r	.	16b-/LL]	.	8.r	.	8.r	.	8.r	.	8.r	.
!	!	!	!	!	!	!	!	!	!	!	!	!	!	!	!	!	!	!	!	!	!	!	!LO:N:vis=4	!	!	!	!	!	!	!	!	!	!	!	!	!	!	!	!	!	!
.	.	16BB-/	po-	16c\	.	16c\	.	.	.	.	.	.	.	.	.	.	.	.	.	.	.	16BB-/LL	8.B-/	16B-\LL	.	.	16B-/LL	16B-\LL	.	.	.	(>16b-/ 16B-'/	.	.	.	.	.	.	.	.	.
.	.	16BB-/	-cie-	16c\	.	16a-\	.	.	.	.	.	.	.	.	.	.	.	.	.	.	.	16BB-/	.	16g\ 16B-\	.	.	16g/	16B-\	.	.	.	16b-/ 16B-'/	.	.	.	.	.	.	.	.	.
.	f	.	.	.	.	.	.	.	.	.	.	.	.	.	.	.	.	f	.	.	f	.	.	.	.	.	.	.	.	.	.	.	.	.	.	.	.	.	.	.	f
16BB-/	.	16BB-/	-szy	16B-\	.	16g\	.	.	16f\ 16B-\	.	16a-/ 16B-/	.	16dd/ 16f/	f	32C/LLL	.	16AA-/	.	16F/	16BB-\	.	16BB-/JJ	.	16f\JJ 16A-\	.	16dd/ 16f/	16f/JJ	16A-\JJ	.	16dd\ 16b-\	.	16b-/JJ 16B-'/)	.	16aa-\ 16ff\	.	16bb-\ 16ff\	.	16ddd\	.	16ddd\	.
.	.	.	.	.	.	.	.	.	.	.	.	.	.	.	32C/JJJ	.	.	.	.	.	.	.	.	.	.	.	.	.	.	.	.	.	.	.	.	.	.	.	.	.	.
*	*	*	*	*	*	*	*	*	*	*	*	*	*	*	*	*	*	*	*	*	*	*	*v	*v	*	*	*	*	*	*	*	*	*	*	*	*	*	*	*	*	*
=24	=24	=24	=24	=24	=24	=24	=24	=24	=24	=24	=24	=24	=24	=24	=24	=24	=24	=24	=24	=24	=24	=24	=24	=24	=24	=24	=24	=24	=24	=24	=24	=24	=24	=24	=24	=24	=24	=24	=24	=24
4E-\	.	4E-\	nas	4A-/	.	4f\	.	.	4g\ 4B-\	.	4g/ 4B-/	.	4ee-/ 4g/	.	4C/	.	4D\	.	4F/	4BB-\	.	4E-\	4e-/ 4G/	.	4ee-/ 4g/	8.e-/L	8.G\L	.	4ee-\ 4b-\	.	4b-/ 4e-/	.	8.gg\L 8.ee-\	.	4bb-\ 4gg\	.	4eee-\	.	4eee-\	.
.	.	.	.	.	.	.	.	.	.	.	.	.	.	.	.	.	.	.	.	.	.	.	.	.	.	16B-/Jk	16B-\Jk	.	.	.	.	.	16b-\Jk	.	.	.	.	.	.	.
.	.	.	.	.	.	.	.	.	.	.	.	.	.	.	.	.	.	.	.	.	.	.	.	.	.	(<8qBnt/	.	.	.	.	.	.	(<16qqa/	.	.	.	.	.	.	.
4r	.	4r	.	4r	.	4r	.	.	4r	.	4r	.	4r	.	4r	.	4r	.	4r	4rDDyy	.	4r	4r	.	4r	4Bny/	4Bny\	.	4r	.	4r	.	4b-T/	.	4r	.	4r	.	4r	.
*	*	*	*	*	*	*	*	*	*	*	*	*	*	*	*	*	*	*	*	*	*	*	*	*	*	*v	*v	*	*	*	*	*	*	*	*	*	*	*	*	*
.	.	.	.	.	.	.	.	.	.	.	.	.	.	.	.	.	.	.	.	.	.	.	.	.	.	32qA-\L	.	.	.	.	.	32qqa/KLL	.	.	.	.	.	.	.
.	.	.	.	.	.	.	.	.	.	.	.	.	.	.	.	.	.	.	.	.	.	.	.	.	.	32qBny\J	.	.	.	.	.	16qqb-/JJ	.	.	.	.	.	.	.
=25	=25	=25	=25	=25	=25	=25	=25	=25	=25	=25	=25	=25	=25	=25	=25	=25	=25	=25	=25	=25	=25	=25	=25	=25	=25	=25	=25	=25	=25	=25	=25	=25	=25	=25	=25	=25	=25	=25	=25
*	*	*	*	*	*	*	*	*	*	*	*	*	*	*	*	*	*	*	*	*	*	*	*	*	*	*	*	*^	*	*^	*	*	*	*	*	*	*	*	*
*	*	*	*	*	*	*	*	*	*	*	*	*	*	*	*	*	*	*	*	*	*	*	*	*	*	*	*	*	*2\right	*	*	*2\right	*	*	*	*	*	*	*	*	*
!	!LO:DY:rj	!	!	!	!	!	!	!	!	!	!	!	!	!	!	!	!	!	!	!	!	!	!	!	!	!	!	!	!	!	!	!	!LO:DY:rj	!	!	!	!	!	!	!	!
16BB-/	p	2r	.	2r	.	2r	.	.	16r	.	16r	.	16r	.	2r	.	2r	.	16F/	2rDD	.	2r	2r	.	2r	16.a-\LL 16.f\)	.	2dd/	2b-\	.	2aa-/	2ff\	p	16.aa-X\LL 16.ff\)	.	2r	.	2r	.	2r	.
16r	.	.	.	.	.	.	.	.	16f\ 16B-\	.	16d/	.	16a-/ 16B-/	p	.	.	.	.	16r	.	.	.	.	.	.	.	.	.	.	.	.	.	.	.	.	.	.	.	.	.	.
.	.	.	.	.	.	.	.	.	.	.	.	.	.	.	.	.	.	.	.	.	.	.	.	.	.	32g\K 32e-\	.	.	.	.	.	.	.	32gg\K 32ee-\	.	.	.	.	.	.	.
*rep	*	*	*	*	*	*	*	*	*rep	*	*rep	*	*rep	*	*	*	*	*	*rep	*	*	*	*	*	*	*	*	*	*	*	*	*	*	*	*	*	*	*	*	*	*
16BB-/	.	.	.	.	.	.	.	.	16r	.	16r	.	16r	.	.	.	.	.	16F/	.	.	.	.	.	.	16.f\ 16.d\	.	.	.	.	.	.	.	16.ff\ 16.dd\	.	.	.	.	.	.	.
16r	.	.	.	.	.	.	.	.	16f\ 16B-\	.	16d/	.	16a-/ 16B-/	.	.	.	.	.	16r	.	.	.	.	.	.	.	.	.	.	.	.	.	.	.	.	.	.	.	.	.	.
.	.	.	.	.	.	.	.	.	.	.	.	.	.	.	.	.	.	.	.	.	.	.	.	.	.	32e-\JJk 32c\	.	.	.	.	.	.	.	32ee-\JJk 32cc\	.	.	.	.	.	.	.
*Xrep	*	*	*	*	*	*	*	*	*Xrep	*	*Xrep	*	*Xrep	*	*	*	*	*	*Xrep	*	*	*	*	*	*	*	*	*	*	*	*	*	*	*	*	*	*	*	*	*	*
*rep	*	*	*	*	*	*	*	*	*rep	*	*rep	*	*rep	*	*	*	*	*	*rep	*	*	*	*	*	*	*	*	*	*	*	*	*	*	*	*	*	*	*	*	*	*
16BB-/	.	.	.	.	.	.	.	.	16r	.	16r	.	16r	.	.	.	.	.	16F/	.	.	.	.	.	.	16.d\LL 16.B-\	.	.	.	.	.	.	.	16.dd\LL 16.b-\	.	.	.	.	.	.	.
16r	.	.	.	.	.	.	.	.	16f\ 16B-\	.	16d/	.	16a-/ 16B-/	.	.	.	.	.	16r	.	.	.	.	.	.	.	.	.	.	.	.	.	.	.	.	.	.	.	.	.	.
.	.	.	.	.	.	.	.	.	.	.	.	.	.	.	.	.	.	.	.	.	.	.	.	.	.	32c\K 32A-\	.	.	.	.	.	.	.	32cc\K 32a-\	.	.	.	.	.	.	.
*Xrep	*	*	*	*	*	*	*	*	*Xrep	*	*Xrep	*	*Xrep	*	*	*	*	*	*Xrep	*	*	*	*	*	*	*	*	*	*	*	*	*	*	*	*	*	*	*	*	*	*
*rep	*	*	*	*	*	*	*	*	*rep	*	*rep	*	*rep	*	*	*	*	*	*rep	*	*	*	*	*	*	*	*	*	*	*	*	*	*	*	*	*	*	*	*	*	*
16BB-/	.	.	.	.	.	.	.	.	16r	.	16r	.	16r	.	.	.	.	.	16F/	.	.	.	.	.	.	16.B-\ 16.G\	.	.	.	.	.	.	.	16.b-\ 16.g\	.	.	.	.	.	.	.
16r	.	.	.	.	.	.	.	.	16f\ 16B-\	.	16d/	.	16a-/ 16B-/	.	.	.	.	.	16r	.	.	.	.	.	.	.	.	.	.	.	.	.	.	.	.	.	.	.	.	.	.
.	.	.	.	.	.	.	.	.	.	.	.	.	.	.	.	.	.	.	.	.	.	.	.	.	.	32A-\JJk 32F\	.	.	.	.	.	.	.	32a-\JJk 32f\	.	.	.	.	.	.	.
*Xrep	*	*	*	*	*	*	*	*	*Xrep	*	*Xrep	*	*Xrep	*	*	*	*	*	*Xrep	*	*	*	*	*	*	*	*	*	*	*	*	*	*	*	*	*	*	*	*	*	*
!!LO:PB:g=original
=26	=26	=26	=26	=26	=26	=26	=26	=26	=26	=26	=26	=26	=26	=26	=26	=26	=26	=26	=26	=26	=26	=26	=26	=26	=26	=26	=26	=26	=26	=26	=26	=26	=26	=26	=26	=26	=26	=26	=26	=26	=26
16E-\	.	2r	.	2r	.	2r	.	.	16r	.	16r	.	16r	.	2r	.	2r	.	16F/	16F\	.	2r	2r	.	2r	16.G/LL 16.E-/	.	4.ee-/	4.b-\	.	4.gg/	4.ee-\	.	16.g\LL 16.e-/	.	2r	.	2r	.	2r	.
16r	.	.	.	.	.	.	.	.	16e-\ 16B-\	.	16e-/	.	16g/ 16B-/	.	.	.	.	.	16r	16r	.	.	.	.	.	.	.	.	.	.	.	.	.	.	.	.	.	.	.	.	.
.	.	.	.	.	.	.	.	.	.	.	.	.	.	.	.	.	.	.	.	.	.	.	.	.	.	32A-/K 32F/	.	.	.	.	.	.	.	32a-\K 32f/	.	.	.	.	.	.	.
*rep	*	*	*	*	*	*	*	*	*rep	*	*rep	*	*rep	*	*	*	*	*	*rep	*	*	*	*	*	*	*	*	*	*	*	*	*	*	*	*	*	*	*	*	*	*
!	!	!	!	!	!	!	!	!	!	!	!	!	!	!	!	!	!	!	!	!LO:N:vis=2	!	!	!	!	!	!	!	!	!	!	!	!	!	!	!	!	!	!	!	!	!
16E-\	.	.	.	.	.	.	.	.	16r	.	16r	.	16r	.	.	.	.	.	16F/	4.r	.	.	.	.	.	16.B-/ 16.G/	.	.	.	.	.	.	.	16.b-\ 16.g/	.	.	.	.	.	.	.
16r	.	.	.	.	.	.	.	.	16e-\ 16B-\	.	16e-/	.	16g/ 16B-/	.	.	.	.	.	16r	.	.	.	.	.	.	.	.	.	.	.	.	.	.	.	.	.	.	.	.	.	.
.	.	.	.	.	.	.	.	.	.	.	.	.	.	.	.	.	.	.	.	.	.	.	.	.	.	32c/JJk 32A-/	.	.	.	.	.	.	.	32cc\JJk 32a-/	.	.	.	.	.	.	.
*Xrep	*	*	*	*	*	*	*	*	*Xrep	*	*Xrep	*	*Xrep	*	*	*	*	*	*Xrep	*	*	*	*	*	*	*	*	*	*	*	*	*	*	*	*	*	*	*	*	*	*
*rep	*	*	*	*	*	*	*	*	*rep	*	*rep	*	*rep	*	*	*	*	*	*rep	*	*	*	*	*	*	*	*	*	*	*	*	*	*	*	*	*	*	*	*	*	*
16E-\	.	.	.	.	.	.	.	.	16r	.	16r	.	16r	.	.	.	.	.	16F/	.	.	.	.	.	.	8B-/ 8G/	.	.	.	.	.	.	.	8b-\L 8g/	.	.	.	.	.	.	.
16r	.	.	.	.	.	.	.	.	16e-\ 16B-\	.	16e-/	.	16g/ 16B-/	.	.	.	.	.	16r	.	.	.	.	.	.	.	.	.	.	.	.	.	.	.	.	.	.	.	.	.	.
*Xrep	*	*	*	*	*	*	*	*	*Xrep	*	*Xrep	*	*Xrep	*	*	*	*	*	*Xrep	*	*	*	*	*	*	*	*	*	*	*	*	*	*	*	*	*	*	*	*	*	*
*rep	*	*	*	*	*	*	*	*	*rep	*	*rep	*	*rep	*	*	*	*	*	*rep	*	*	*	*	*	*	*	*	*	*	*	*	*	*	*	*	*	*	*	*	*	*
16E-\	.	.	.	.	.	.	.	.	16r	.	16r	.	16r	.	.	.	.	.	16F/	.	.	.	.	.	.	(8B-/ 8Gt/	.	8r	8rByy	.	8r	8reyy	.	(8b-\J 8gt/	.	.	.	.	.	.	.
16r	.	.	.	.	.	.	.	.	16e-\ 16B-\	.	16e-/	.	16g/ 16B-/	.	.	.	.	.	16r	.	.	.	.	.	.	.	.	.	.	.	.	.	.	.	.	.	.	.	.	.	.
.	.	.	.	.	.	.	.	.	.	.	.	.	.	.	.	.	.	.	.	.	.	.	.	.	.	16qqAn/LL 16qqF#X/	.	.	.	.	.	.	.	16qqa\LL 16qqf#X/	.	.	.	.	.	.	.
.	.	.	.	.	.	.	.	.	.	.	.	.	.	.	.	.	.	.	.	.	.	.	.	.	.	16qqB-/JJ 16qqG/)	.	.	.	.	.	.	.	16qqb-\JJ 16qqg/)	.	.	.	.	.	.	.
*Xrep	*	*	*	*	*	*	*	*	*Xrep	*	*Xrep	*	*Xrep	*	*	*	*	*	*Xrep	*	*	*	*	*	*	*	*	*	*	*	*	*	*	*	*	*	*	*	*	*	*
=27	=27	=27	=27	=27	=27	=27	=27	=27	=27	=27	=27	=27	=27	=27	=27	=27	=27	=27	=27	=27	=27	=27	=27	=27	=27	=27	=27	=27	=27	=27	=27	=27	=27	=27	=27	=27	=27	=27	=27	=27	=27
*	*	*	*	*	*	*	*	*	*	*	*	*	*	*	*	*	*	*	*rep	*rep	*	*	*	*	*	*Xtuplet	*	*	*	*	*	*	*	*Xtuplet	*	*	*	*	*	*	*
16BB-/	.	2r	.	2r	.	2r	.	.	16r	.	16r	.	16r	.	2r	.	2r	.	16F/	16F\	.	2r	2r	.	2r	24a-\LL 24f'\	.	2dd/	2b-\	.	2aa-/	2ff\	.	24aa-\LL 24ff'\	.	2r	.	2r	.	2r	.
.	.	.	.	.	.	.	.	.	.	.	.	.	.	.	.	.	.	.	.	.	.	.	.	.	.	(24a-\ 24f\	.	.	.	.	.	.	.	(24aa-\ 24ff\	.	.	.	.	.	.	.
16r	.	.	.	.	.	.	.	.	16f\ 16B-\	.	16d/	.	16a-/ 16B-/	.	.	.	.	.	16r	16r	.	.	.	.	.	.	.	.	.	.	.	.	.	.	.	.	.	.	.	.	.
.	.	.	.	.	.	.	.	.	.	.	.	.	.	.	.	.	.	.	.	.	.	.	.	.	.	24g\JJ 24e-\)	.	.	.	.	.	.	.	24gg\JJ 24ee-\)	.	.	.	.	.	.	.
*rep	*	*	*	*	*	*	*	*	*rep	*	*rep	*	*rep	*	*	*	*	*	*rep	*rep	*	*	*	*	*	*	*	*	*	*	*	*	*	*	*	*	*	*	*	*	*
!	!	!	!	!	!	!	!	!	!	!	!	!	!	!	!	!	!	!	!	!LO:N:vis=2	!	!	!	!	!	!	!	!	!	!	!	!	!	!	!	!	!	!	!	!	!
16BB-/	.	.	.	.	.	.	.	.	16r	.	16r	.	16r	.	.	.	.	.	16F/	4.r	.	.	.	.	.	24f\LL 24d'\	.	.	.	.	.	.	.	24ff\LL 24dd'\	.	.	.	.	.	.	.
.	.	.	.	.	.	.	.	.	.	.	.	.	.	.	.	.	.	.	.	.	.	.	.	.	.	(24f\ 24d\	.	.	.	.	.	.	.	(24ff\ 24dd\	.	.	.	.	.	.	.
16r	.	.	.	.	.	.	.	.	16f\ 16B-\	.	16d/	.	16a-/ 16B-/	.	.	.	.	.	16r	.	.	.	.	.	.	.	.	.	.	.	.	.	.	.	.	.	.	.	.	.	.
.	.	.	.	.	.	.	.	.	.	.	.	.	.	.	.	.	.	.	.	.	.	.	.	.	.	24e-\JJ 24c\)	.	.	.	.	.	.	.	24ee-\JJ 24cc\)	.	.	.	.	.	.	.
*Xrep	*	*	*	*	*	*	*	*	*Xrep	*	*Xrep	*	*Xrep	*	*	*	*	*	*Xrep	*Xrep	*	*	*	*	*	*	*	*	*	*	*	*	*	*	*	*	*	*	*	*	*
*rep	*	*	*	*	*	*	*	*	*rep	*	*rep	*	*rep	*	*	*	*	*	*rep	*rep	*	*	*	*	*	*	*	*	*	*	*	*	*	*	*	*	*	*	*	*	*
16BB-/	.	.	.	.	.	.	.	.	16r	.	16r	.	16r	.	.	.	.	.	16F/	.	.	.	.	.	.	24d\LL 24B-'\	.	.	.	.	.	.	.	24dd\LL 24b-'\	.	.	.	.	.	.	.
.	.	.	.	.	.	.	.	.	.	.	.	.	.	.	.	.	.	.	.	.	.	.	.	.	.	(24d\ 24B-\	.	.	.	.	.	.	.	(24dd\ 24b-\	.	.	.	.	.	.	.
16r	.	.	.	.	.	.	.	.	16f\ 16B-\	.	16d/	.	16a-/ 16B-/	.	.	.	.	.	16r	.	.	.	.	.	.	.	.	.	.	.	.	.	.	.	.	.	.	.	.	.	.
.	.	.	.	.	.	.	.	.	.	.	.	.	.	.	.	.	.	.	.	.	.	.	.	.	.	24c\JJ 24A-\)	.	.	.	.	.	.	.	24cc\JJ 24a-\)	.	.	.	.	.	.	.
*Xrep	*	*	*	*	*	*	*	*	*Xrep	*	*Xrep	*	*Xrep	*	*	*	*	*	*Xrep	*Xrep	*	*	*	*	*	*	*	*	*	*	*	*	*	*	*	*	*	*	*	*	*
*rep	*	*	*	*	*	*	*	*	*rep	*	*rep	*	*rep	*	*	*	*	*	*rep	*rep	*	*	*	*	*	*	*	*	*	*	*	*	*	*	*	*	*	*	*	*	*
16BB-/	.	.	.	.	.	.	.	.	16r	.	16r	.	16r	.	.	.	.	.	16F/	.	.	.	.	.	.	24B-/LL 24G'/	.	.	.	.	.	.	.	24b-/LL 24g'/	.	.	.	.	.	.	.
.	.	.	.	.	.	.	.	.	.	.	.	.	.	.	.	.	.	.	.	.	.	.	.	.	.	(24B-/ 24G/	.	.	.	.	.	.	.	(>24b-/ 24g/	.	.	.	.	.	.	.
16r	.	.	.	.	.	.	.	.	16f\ 16B-\	.	16d/	.	16a-/ 16B-/	.	.	.	.	.	16r	.	.	.	.	.	.	.	.	.	.	.	.	.	.	.	.	.	.	.	.	.	.
.	.	.	.	.	.	.	.	.	.	.	.	.	.	.	.	.	.	.	.	.	.	.	.	.	.	24A-/JJ 24F/)	.	.	.	.	.	.	.	24a-/JJ 24f/)	.	.	.	.	.	.	.
*Xrep	*	*	*	*	*	*	*	*	*Xrep	*	*Xrep	*	*Xrep	*	*	*	*	*	*Xrep	*Xrep	*	*	*	*	*	*	*	*	*	*	*	*	*	*	*	*	*	*	*	*	*
*	*	*	*	*	*	*	*	*	*	*	*	*	*	*	*	*	*	*	*Xrep	*Xrep	*	*	*	*	*	*	*	*	*	*	*	*	*	*	*	*	*	*	*	*	*
=28	=28	=28	=28	=28	=28	=28	=28	=28	=28	=28	=28	=28	=28	=28	=28	=28	=28	=28	=28	=28	=28	=28	=28	=28	=28	=28	=28	=28	=28	=28	=28	=28	=28	=28	=28	=28	=28	=28	=28	=28	=28
16E-\	.	2r	.	2r	.	2r	.	.	16r	.	16r	.	16r	.	2r	.	4r	.	16F/	2r	.	2r	2r	.	4r	16.G/LL 16.E-/	.	(4ee-/	4.b-\	.	16gg/	16ee-\	.	16.g/LL 16.e-/	.	4r	.	4r	.	4r	.
16r	.	.	.	.	.	.	.	.	16e-\ 16B-\	.	16e-/	.	16g/ 16B-/	.	.	.	.	.	16r	.	.	.	.	.	.	.	.	.	.	.	16r	16ryy	.	.	.	.	.	.	.	.	.
.	.	.	.	.	.	.	.	.	.	.	.	.	.	.	.	.	.	.	.	.	.	.	.	.	.	32c/K 32A-/	.	.	.	.	.	.	.	32cc/K 32a-/	.	.	.	.	.	.	.
16E-\	.	.	.	.	.	.	.	.	16r	.	16r	.	16r	.	.	.	.	.	16F/	.	.	.	.	.	.	16.B-/ 16.G/	.	.	.	.	8ee-/L 8g/	4.ryy	.	16.b-/ 16.g/	.	.	.	.	.	.	.
16r	.	.	.	.	.	.	.	.	16e-\ 16B-\	.	16e-/	.	16g/ 16B-/	.	.	.	.	.	16r	.	.	.	.	.	.	.	.	.	.	.	.	.	.	.	.	.	.	.	.	.	.
.	.	.	.	.	.	.	.	.	.	.	.	.	.	.	.	.	.	.	.	.	.	.	.	.	.	32G/JJk 32E-/	.	.	.	.	.	.	.	32g/JJk 32e-/	.	.	.	.	.	.	.
8BB-/	.	.	.	.	.	.	.	.	8f\ 8B-\	.	8d/	.	8f/ 8B-/	.	.	.	8r	.	8F/	.	.	.	.	.	16.r	16.F/ 16.D/	.	8dd/)	.	.	16.ff/Jk 16.b-/	.	.	16.f/LL 16.d/	.	16.r	.	16.r	.	16.r	.
*	*	*	*	*	*	*	*	*	*	*	*	*	*	*	*	*	*Xtremolo	*	*	*	*	*	*	*	*	*clefF4	*	*	*	*	*	*	*	*	*	*	*	*	*	*	*
!	!	!	!	!	!	!	!	!	!	!	!	!	!	!	!	!	!	!	!	!	!	!	!	!	!	!	!	!	!	!	!	!	!	!	!	!	!	!LO:TX:b:t=Col Fl	!	!	!
.	.	.	.	.	.	.	.	.	.	.	.	.	.	.	.	.	.	.	.	.	.	.	.	.	32B-/	32B-/ 32BB-/	.	.	.	.	32b-/	.	.	32b-/JJk	.	32bb-\ 32b-\	.	32bb-'\yy	.	32bb-'\	.
8r	.	.	.	.	.	.	.	.	8r	.	8r	.	8r	.	.	.	32r	.	8r	.	.	.	.	.	32c/LLL	32An/LLL 32AAn/	.	8ree	8rf	.	32cc/LLL	.	<	32cc\LLL	.	32ccc\LLL 32cc\	.	32ccc'\LLLyy	<yy	32ccc'\LLL	<
.	.	.	.	.	.	.	.	.	.	.	.	.	.	.	.	.	32AA-/LLL	<	.	.	.	.	.	.	32d/ 32B-/	32A-X/ 32AA-X/	.	.	.	.	32dd/ 32b-/	.	.	32dd\ 32b-\	.	32bb-\ 32b-\	.	32ddd'\yy	.	32ddd'\	.
.	.	.	.	.	.	.	.	.	.	.	.	.	.	.	.	.	32AA-/	.	.	.	.	.	.	.	32e-/ 32B-/	32G/ 32GG/	.	.	.	.	32ee-/ 32b-/	.	.	32ee-\ 32b-\	.	32bb-\ 32b-\	.	32eee-'\yy	.	32eee-'\	.
.	.	.	.	.	.	.	.	.	.	f	.	.	.	f	.	.	32AA-/JJJ	[[	.	.	f	.	.	f	32f/JJJ 32B-/	32D/JJJ 32DD/	.	.	.	.	32ff/JJJ 32b-/	.	[	32ff\JJJ 32b-\	.	32bb-\JJJ 32b-\	.	32fff'\JJJyy	[[	32fff'\JJJ	[[
*	*	*	*	*	*	*	*	*	*	*	*	*	*	*	*	*	*	*	*	*	*	*	*	*	*	*	*	*v	*v	*	*	*	*	*	*	*	*	*	*	*	*
=29	=29	=29	=29	=29	=29	=29	=29	=29	=29	=29	=29	=29	=29	=29	=29	=29	=29	=29	=29	=29	=29	=29	=29	=29	=29	=29	=29	=29	=29	=29	=29	=29	=29	=29	=29	=29	=29	=29	=29	=29
.	.	.	.	.	.	.	.	.	.	.	.	.	.	.	(16qqC/LL	.	.	.	.	.	.	.	.	.	.	.	.	.	.	.	.	.	.	.	.	.	.	.	.	.
.	.	.	.	.	.	.	.	.	.	.	.	.	.	.	16qqC/JJ	.	.	.	.	.	.	.	.	.	.	.	.	.	.	.	.	.	.	.	.	.	.	.	.	.
!	!LO:DY:rj	!	!	!	!	!	!	!	!	!	!	!	!	!	!	!	!	!LO:DY:rj	!	!	!	!	!	!	!	!	!LO:DY:rj	!	!	!	!	!	!	!LO:DY:rj	!	!	!	!	!	!
4E-\	f	2r	.	2r	.	2r	.	.	4g\ 4B-\ 4E-\	.	4ee-/ 4e-/ 4B-/	.	4gg\ 4b-\ 4e-\	.	4C/)	.	4D\	f	4F/	4BB-\	.	4E-\	4g\ 4e-\	.	4g/ 4e-/	4E-/ 4EE-/	f	4b-/ 4B-/	f	4gg/	4ee-\	f	4gg\	f	4eee-\ 4ee-\	.	4ggg\yy	fyy	4ggg\	f
(16BBn/LL	.	.	.	.	.	.	.	.	16Bn/LL	.	(16dd\LL	.	(16ff\LL	.	4r	.	4r	.	4r	4rDDyy	.	(16BBn/LL	16f\LL 16d\	.	16f/LL 16d/	(16BBn/LL	.	4r	.	4rb	4reyy	.	(16ff\LL	.	(16ddd\LL 16dd\	.	(16fff\LLyy	.	(16fff\LL	.
16C/	.	.	.	.	.	.	.	.	16c/	.	16cc\	.	16ee-\	.	.	.	.	.	.	.	.	16C/	16e-\ 16c\	.	16e-/ 16c/	16C/	.	.	.	.	.	.	16ee-\	.	16ccc\ 16cc\	.	16eee-\yy	.	16eee-\	.
16GG/	.	.	.	.	.	.	.	.	16G/	.	16b-\	.	16dd\	.	.	.	.	.	.	.	.	16GG/	16d\ 16B-\	.	16d/ 16B-/	16GG/	.	.	.	.	.	.	16dd\	.	16bb-\ 16b-\	.	16ddd\yy	.	16ddd\	.
16AA-/JJ)	.	.	.	.	.	.	.	.	16A-/JJ	.	16a-\JJ)	.	16cc\JJ)	.	.	.	.	.	.	.	.	16AA-/JJ)	16c\JJ 16A-\	.	16c/JJ 16A-/	16AA-/JJ)	.	.	.	.	.	.	16cc\JJ)	.	16aa-\JJ 16a-\)	.	16ccc\JJ)yy	.	16ccc\JJ)	.
*	*	*	*	*	*	*	*	*	*	*	*	*	*	*	*	*	*	*	*	*	*	*	*	*	*	*	*	*	*	*v	*v	*	*	*	*	*	*	*	*	*
!!LO:PB:g=original
=30	=30	=30	=30	=30	=30	=30	=30	=30	=30	=30	=30	=30	=30	=30	=30	=30	=30	=30	=30	=30	=30	=30	=30	=30	=30	=30	=30	=30	=30	=30	=30	=30	=30	=30	=30	=30	=30	=30	=30
.	.	.	.	.	.	.	.	.	.	.	.	.	.	.	(16qqC/LL	.	.	.	.	.	.	.	.	.	.	.	.	.	.	.	.	.	.	.	.	.	.	.	.
.	.	.	.	.	.	.	.	.	.	.	.	.	.	.	16qqC/JJ	.	.	.	.	.	.	.	.	.	.	.	.	.	.	.	.	.	.	.	.	.	.	.	.
8BB-'/L	.	2r	.	2r	.	2r	.	.	8B-/L	.	8d'/L	.	8b-'/L	.	4C/)	.	8AA-/L	.	8F/L	4BB-\	.	8BB-'/L	8B-/L 8D/	.	8B-/L	8BB-'/L	.	4r	.	4r	.	8b-'/L	.	8bb-\L 8dd\	.	8bb-\L	.	8ddd'\L	.
*	*	*	*	*	*	*	*	*	*	*	*	*	*	*	*	*	*	*	*	*tremolo	*	*	*	*	*	*	*	*	*	*	*	*	*	*	*	*	*	*	*
(<16C/L	.	.	.	.	.	.	.	.	16c/L	.	(16e-/L	.	(16a-/L	.	.	.	16D/L	.	32F/LL	.	.	(<16C/L	(16A-/L 16E-/	.	(16c/L	(16C/L	.	.	.	.	.	(16a-/L	.	(16aa-\L 16ee-\	.	(16aa-\L	.	(16eee-\L	.
.	.	.	.	.	.	.	.	.	.	.	.	.	.	.	.	.	.	.	32F/	.	.	.	.	.	.	.	.	.	.	.	.	.	.	.	.	.	.	.	.
16D/JJ	.	.	.	.	.	.	.	.	16d/JJ 16B-/	.	16B-/JJ	.	16f/JJ	.	.	.	16AA-/JJ	.	32F/	.	.	16D/JJ	16F/JJ	.	16d/JJ	16D/JJ	.	.	.	.	.	16f/JJ)	.	16ff\JJ 16b-\	.	16ff\JJ)	.	16bb-\JJ	.
.	.	.	.	.	.	.	.	.	.	.	.	.	.	.	.	.	.	.	32F/JJJ	.	.	.	.	.	.	.	.	.	.	.	.	.	.	.	.	.	.	.	.
8E-\)	.	.	.	.	.	.	.	.	8e-/ 8B-/	.	8e-/)	.	8g/)	.	4r	.	8D\	.	8F/	4rAA	.	8E-\)	8G/ 8E-/)	.	8e-/)	8E-\)	.	8r	.	8r	.	8e-/	.	8gg\ 8b-\)	.	8gg\	.	8eee-\)	.
16.C/LL	.	.	.	.	.	.	.	.	16.c/LL	.	16.g/LL	.	16.ee-\LL	.	.	.	16.D\LL	.	8rE	.	.	16.C/LL	16.e-\LL 16.G\	.	16.ee-\LL 16.g\	16.c\LL 16.C\	.	16.ee-\LL 16.cc\	.	16.gg\LL 16.ee-\	.	16.ee-\LL 16.g\	.	16.ccc\LL 16.gg\	.	16.eee-\LL	.	16.eee-\LL	.
32C/JJk	.	.	.	.	.	.	.	.	32c/JJk	.	32g/JJk	.	32ee-\JJk	.	.	.	32D\JJk	.	.	.	.	32C/JJk	32e-\JJk 32G\	.	32ee-\JJk 32g\	32c\JJk 32C\	.	32ee-\JJk 32cc\	.	32gg\JJk 32ee-\	.	32ee-\JJk 32g\	.	32ccc\JJk 32gg\	.	32eee-\JJk	.	32eee-\JJk	.
=31	=31	=31	=31	=31	=31	=31	=31	=31	=31	=31	=31	=31	=31	=31	=31	=31	=31	=31	=31	=31	=31	=31	=31	=31	=31	=31	=31	=31	=31	=31	=31	=31	=31	=31	=31	=31	=31	=31	=31
!	!	!	!	!	!	!	!	!	!	!	!	!	!	!	!	!	!	!	!	!	!	!	!	!	!	!	!	!	!	!	!	!	!	!	!	!LO:TX:b:t=Col Fl	!	!	!
8AA-/	.	2r	.	2r	.	2r	.	.	8A-/	.	8a-/L	.	8cc\L	.	8C/	.	8D\	.	8F/	8BB-\	.	8AA-/L	8c\L 8A-\	.	8cc\L 8a-\	8A-\L 8AA-\	.	8cc\L	.	8ff\L	.	8ff\L 8a-\	.	8ccc\L 8aa-\	.	8ccc\Lyy	.	8ccc\L	.
16.A-\LL	.	.	.	.	.	.	.	.	16.f\LL 16.A-\	.	16.a-/L 16.c/	.	16.ff\L	.	8r	.	8r	.	8rE	8rAA	.	16.AA-/L	16.f\L 16.A-\	.	16.ff\L 16.a-\	16.A-\L 16.AA-\	.	16.cc\L	.	16.ff\L	.	16.ff\L 16.a-\	.	16.ccc\L 16.aa-\	.	16.fff\Lyy	.	16.fff\L	.
32A-\JJk	.	.	.	.	.	.	.	.	32f\JJk 32A-\	.	32a-/JJk 32c/	.	32ff\JJk	.	.	.	.	.	.	.	.	32AA-/JJk	32f\JJk 32A-\	.	32ff\JJk 32a-\	32A-\JJk 32AA-\	.	32cc\JJk	.	32ff\JJk	.	32ff\JJk 32a-\	.	32ccc\JJk 32aa-\	.	32fff\JJkyy	.	32fff\JJk	.
!LO:TX:t=P:problem=mixed beam	!	!	!	!	!	!	!	!	!	!	!	!	!	!	!	!	!	!	!	!	!	!	!	!	!	!	!	!	!	!	!	!	!	!	!	!	!	!	!
*	*	*	*	*	*	*	*	*	*	*	*	*	*	*	*	*	*	*	*	*Xtremolo	*	*	*	*	*	*	*	*	*	*	*	*	*	*	*	*	*	*	*
8B-\L	.	.	.	.	.	.	.	.	8f\L 8B-\	.	8a-/L 8B-/	.	8ee-\L	.	8C/L	.	8r	.	8F/L	8BB-\L	.	8BB-/L	8e-\L 8G\	.	8ee-\L 8g\	8B-\L 8BB-\	.	8b-\L	.	8gg\L 8ee-\	.	8ee-\L 8g\	.	8bb-\L 8gg\	.	8eee-\Lyy	.	8eee-\L	.
8BB-/J	.	.	.	.	.	.	.	.	8f\J 8B-\	.	8a-/J 8B-/	.	8dd\J	.	8CT/J	.	8AA-/	.	32F/LL	8BB-\J	.	8BB-/J	8d\J 8A-\	.	8dd\J 8f\	8B-\J 8BB-\	.	8b-\J	.	8ff\J 8b-\	.	8dd\J 8a-\	.	8aa-\J 8ff\	.	8ddd\Jyy	.	8ddd\J	.
.	.	.	.	.	.	.	.	.	.	.	.	.	.	.	.	.	.	.	32F/	.	.	.	.	.	.	.	.	.	.	.	.	.	.	.	.	.	.	.	.
.	.	.	.	.	.	.	.	.	.	.	.	.	.	.	.	.	.	.	32F/	.	.	.	.	.	.	.	.	.	.	.	.	.	.	.	.	.	.	.	.
.	.	.	.	.	.	.	.	.	.	.	.	.	.	.	.	.	.	.	32F/JJJ	.	.	.	.	.	.	.	.	.	.	.	.	.	.	.	.	.	.	.	.
=	=	=	=	=	=	=	=	=	=	=	=	=	=	=	=	=	=	=	=	=	=	=	=	=	=	=	=	=	=	=	=	=	=	=	=	=	=	=	=
8E-\	.	4r	.	4r	.	4r	.	.	8e-\	.	8g/ 8B-/	.	8ee-\	.	8C/	.	8D\	.	8F/	8BB-\	.	8E-\	8e-\ 8G\	.	8ee-\ 8g\	8B-\ 8E-\	.	8b-\	.	8ee-/ 8g/	.	8ee-\ 8g\	.	8gg\ 8ee-\	.	8eee-\yy	.	8eee-\	.
16.E-\LL	.	.	.	.	.	.	.	.	16.g\LL 16.B-\	.	16.gg\LL 16.b-\	.	16.eee-\LL	.	16.C/LL	.	16.D\LL	.	16.F/LL	8ryy	.	16.E-\LL	16.e-\LL 16.G\	.	16.ee-\LL 16.g\	16.B-\LL 16.E-\	.	16.b-\LL	.	16.ee-/LL 16.g/	.	16.ee-\LL 16.g\	.	16.gg\LL 16.ee-\	.	16.eee-\LLyy	.	16.eee-\LL	.
32E-\JJk	.	.	.	.	.	.	.	.	32g\JJk 32B-\	.	32gg\JJk 32b-\	.	32eee-\JJk	.	32C/JJk	.	32D\JJk	.	32F/JJk	.	.	32E-\JJk	32e-\JJk 32G\	.	32ee-\JJk 32g\	32B-\JJk 32E-\	.	32b-\JJk	.	32ee-/JJk 32g/	.	32ee-\JJk 32g\	.	32gg\JJk 32ee-\	.	32eee-\JJkyy	.	32eee-\JJk	.
8E-\	.	8r	.	8r	.	8r	.	.	8g\ 8B-\	.	8gg\ 8b-\	.	8eee-\	.	8C/	.	8D\	.	8F/	8rDD	.	8E-\	8e-\ 8G\	.	8ee-\ 8g\	8B-\ 8E-\	.	8b-\	.	8ee-/ 8g/	.	8ee-\ 8g\	.	8gg\ 8ee-\	.	8eee-\yy	.	8eee-\	.
*	*	*	*	*	*	*	*	*	*	*	*	*	*	*	*	*	*	*	*v	*v	*	*	*	*	*	*	*	*	*	*	*	*	*	*	*	*	*	*	*
=32||	=32||	=32||	=32||	=32||	=32||	=32||	=32||	=32||	=32||	=32||	=32||	=32||	=32||	=32||	=32||	=32||	=32||	=32||	=32||	=32||	=32||	=32||	=32||	=32||	=32||	=32||	=32||	=32||	=32||	=32||	=32||	=32||	=32||	=32||	=32||	=32||	=32||	=32||
8r	.	8r	.	8r	.	8r	.	.	8r	.	8r	.	8r	.	8r	.	8r	.	8r	.	8r	8r	.	8r	8r	.	8r	.	16.b-/LL	.	8r	.	8r	.	8r	.	8r	.
.	.	.	.	.	.	.	.	.	.	.	.	.	.	.	.	.	.	.	.	.	.	.	.	.	.	.	.	.	32b-/JJk	.	.	.	.	.	.	.	.	.
=33	=33	=33	=33	=33	=33	=33	=33	=33	=33	=33	=33	=33	=33	=33	=33	=33	=33	=33	=33	=33	=33	=33	=33	=33	=33	=33	=33	=33	=33	=33	=33	=33	=33	=33	=33	=33	=33	=33
2r	.	2r	.	2r	.	2r	.	.	2r	.	2r	.	2r	.	2r	.	2r	.	2r	.	2r	2r	.	2r	4r	.	2r	.	[>4b-/	.	2r	.	2r	.	2r	.	2r	.
.	.	.	.	.	.	.	.	.	.	.	.	.	.	.	.	.	.	.	.	.	.	.	.	.	16r	.	.	.	16b-/LL]	.	.	.	.	.	.	.	.	.
*	*	*	*	*	*	*	*	*	*	*	*	*	*	*	*	*	*	*	*	*	*	*	*	*	*clefC4	*	*	*	*	*	*	*	*	*	*	*	*	*
.	.	.	.	.	.	.	.	.	.	.	.	.	.	.	.	.	.	.	.	.	.	.	.	.	16f\LL 16A-'\	.	.	.	16b-/ 16B-'/	.	.	.	.	.	.	.	.	.
.	.	.	.	.	.	.	.	.	.	.	.	.	.	.	.	.	.	.	.	.	.	.	.	.	16e-\ 16G'\	.	.	.	16b-/ 16B-'/	.	.	.	.	.	.	.	.	.
.	.	.	.	.	.	.	.	.	.	.	.	.	.	.	.	.	.	.	.	.	.	.	.	.	16d\JJ 16F'\	.	.	.	16b-/JJ 16B-'/	.	.	.	.	.	.	.	.	.
!!LO:PB:g=original
=34	=34	=34	=34	=34	=34	=34	=34	=34	=34	=34	=34	=34	=34	=34	=34	=34	=34	=34	=34	=34	=34	=34	=34	=34	=34	=34	=34	=34	=34	=34	=34	=34	=34	=34	=34	=34	=34	=34
2r	.	2r	.	2r	.	2r	.	.	2r	.	2r	.	2r	.	2r	.	2r	.	2r	.	2r	2r	.	2r	4e-\ 4G\	.	2r	.	8.b-/L 8.e-/	.	2ryy	.	2ryy	.	2ryy	.	2ryy	.
.	.	.	.	.	.	.	.	.	.	.	.	.	.	.	.	.	.	.	.	.	.	.	.	.	.	.	.	.	16b-/Jk 16B-/|	.	.	.	.	.	.	.	.	.
.	.	.	.	.	.	.	.	.	.	.	.	.	.	.	.	.	.	.	.	.	.	.	.	.	.	.	.	.	.	p	.	.	.	.	.	.	.	.
.	.	.	.	.	.	.	.	.	.	.	.	.	.	.	.	.	.	.	.	.	.	.	.	.	4r	.	.	.	8.ee-/L 8.e-/|	.	.	.	.	.	.	.	.	.
.	.	.	.	.	.	.	.	.	.	.	.	.	.	.	.	.	.	.	.	.	.	.	.	.	.	.	.	.	16g/Jk|	.	.	.	.	.	.	.	.	.
=35	=35	=35	=35	=35	=35	=35	=35	=35	=35	=35	=35	=35	=35	=35	=35	=35	=35	=35	=35	=35	=35	=35	=35	=35	=35	=35	=35	=35	=35	=35	=35	=35	=35	=35	=35	=35	=35	=35
*	*	*	*	*	*	*	*	*	*	*	*	*	*	*	*	*	*	*	*^	*	*	*^	*	*	*	*	*	*	*	*	*	*	*	*	*	*	*	*
!	!	!	!	!	!	!	!	!	!	!	!	!	!	!	!	!	!	!	!	!	!	!	!	!	!	!	!	!	!	!	!	!	!	!	!	!	!	!	!LO:TX:t=P:problem=głosy do pustych taktóW przekopiowane z t. 23-25	!
4ryy	.	4ryy	.	[4c\yy	Bóg	4ryy	.	.	4ryy	.	4ryy	.	4ryy	.	4ryy	.	4ryy	.	4rByy	4rDDyy	.	4ryy	4ryy	4rBByy	.	4ryy	4r	.	2r	.	[>4b-/	.	4ryy	.	4ryy	.	4ryy	.	4ryy	.
8.ryy	.	16ryy	.	16c\]yy	.	16ryy	.	.	8.ryy	.	8.ryy	.	8.ryy	.	8.ryy	.	8.ryy	.	8.rByy	8.rDDyy	.	16ryy	16ryy	16rBByy	.	8.ryy	16r	.	.	.	16b-/LL]	.	8.ryy	.	8.ryy	.	8.ryy	.	8.ryy	.
.	.	16BB-/yy	po-	16c\yy	.	16c\yy	.	.	.	.	.	.	.	.	.	.	.	.	.	.	.	16BB-/LLyy	8.B-/yy	16B-\LLyy	fyy	.	16B-'\LL	.	.	.	16b-/ 16B-'/	.	.	.	.	.	.	.	.	.
.	.	16BB-/yy	-cie-	16c\yy	.	16a-\yy	.	.	.	.	.	.	.	.	.	.	.	.	.	.	.	16BB-/yy	.	16gyy\ 16B-\yy	.	.	16g\ 16B-'\	.	.	.	16b-/ 16B-'/	.	.	.	.	.	.	.	.	.
16BB-/yy	fyy	16BB-/yy	-szy	16B-\yy	.	16g\yy	.	.	16fyy\ 16B-\yy	.	16a-yy/ 16B-/yy	.	16ddyy/ 16fyy/	fyy	32C/LLLyy	.	16AA-/yy	fyy	16F/yy	16BB-\yy	fyy	16BB-/JJyy	.	16fyy\JJ 16A-\yy	.	16ddyy/ 16f/yy	16f\JJ 16A-'\	.	.	.	16b-/JJ 16B-'/	.	16aa-yy\ 16ff\yy	.	16bb-yy\ 16ff\yy	.	16ddd\yy	.	16ddd\yy	fyy
.	.	.	.	.	.	.	.	.	.	.	.	.	.	.	32C/JJJyy	.	.	.	.	.	.	.	.	.	.	.	.	.	.	.	.	.	.	.	.	.	.	.	.	.
*	*	*	*	*	*	*	*	*	*	*	*	*	*	*	*	*	*	*	*	*	*	*	*v	*v	*	*	*	*	*	*	*	*	*	*	*	*	*	*	*	*
=36	=36	=36	=36	=36	=36	=36	=36	=36	=36	=36	=36	=36	=36	=36	=36	=36	=36	=36	=36	=36	=36	=36	=36	=36	=36	=36	=36	=36	=36	=36	=36	=36	=36	=36	=36	=36	=36	=36	=36
4E-\yy	.	4E-\yy	nas	4A-/yy	.	4f\yy	.	.	4gyy\ 4B-\yy	.	4gyy/ 4B-/yy	.	4ee-yy/ 4g/yy	.	4C/yy	.	4D\yy	.	4F/yy	4BB-\yy	.	4E-\yy	4e-yy/ 4G/yy	.	4ee-yy/ 4g/yy	8e-\ 8G\	.	2r	.	8b-/ 8e-/	.	8.ggyy\L 8.ee-\yy	.	4bb-yy\ 4gg\yy	.	4eee-\yy	.	4eee-\yy	.
.	.	.	.	.	.	.	.	.	.	.	.	.	.	.	.	.	.	.	.	.	.	.	.	.	.	8r	.	.	.	8r	.	.	.	.	.	.	.	.	.
.	.	.	.	.	.	.	.	.	.	.	.	.	.	.	.	.	.	.	.	.	.	.	.	.	.	.	.	.	.	.	.	16b-\Jkyy	.	.	.	.	.	.	.
.	.	.	.	.	.	.	.	.	.	.	.	.	.	.	.	.	.	.	.	.	.	.	.	.	.	.	.	.	.	.	.	(16qqa/yy	.	.	.	.	.	.	.
4ryy	.	4ryy	.	4ryy	.	4ryy	.	.	4ryy	.	4ryy	.	4ryy	.	4ryy	.	4ryy	.	4rByy	4ryy	.	4ryy	4ryy	.	4ryy	4r	.	.	.	4ff/ 4b-/	pp	4b-T/yy	.	4ryy	.	4ryy	.	4ryy	.
.	.	.	.	.	.	.	.	.	.	.	.	.	.	.	.	.	.	.	.	.	.	.	.	.	.	.	.	.	.	.	.	32qqa/KLLyy	.	.	.	.	.	.	.
.	.	.	.	.	.	.	.	.	.	.	.	.	.	.	.	.	.	.	.	.	.	.	.	.	.	.	.	.	.	.	.	16qqb-/JJyy	.	.	.	.	.	.	.
=37	=37	=37	=37	=37	=37	=37	=37	=37	=37	=37	=37	=37	=37	=37	=37	=37	=37	=37	=37	=37	=37	=37	=37	=37	=37	=37	=37	=37	=37	=37	=37	=37	=37	=37	=37	=37	=37	=37	=37
16BB-/yy	pyy	2ryy	.	2ryy	.	2ryy	.	.	16ryy	.	16ryy	.	16ryy	.	2ryy	.	2ryy	.	16F/yy	2ryy	.	2ryy	2ryy	.	2ryy	2r	.	2r	.	8gg\ 8ee-\	.	16.aa-Xyy\LL 16.ff\)yy	.	2ryy	.	2ryy	.	2ryy	.
16ryy	.	.	.	.	.	.	.	.	16fyy\ 16B-\yy	.	16d/yy	.	16a-yy/ 16B-/yy	pyy	.	.	.	.	16rEyy	.	.	.	.	.	.	.	.	.	.	.	.	.	.	.	.	.	.	.	.
.	.	.	.	.	.	.	.	.	.	.	.	.	.	.	.	.	.	.	.	.	.	.	.	.	.	.	.	.	.	.	.	32ggyy\K 32ee-\yy	.	.	.	.	.	.	.
16BB-/yy	.	.	.	.	.	.	.	.	16ryy	.	16ryy	.	16ryy	.	.	.	.	.	16F/yy	.	.	.	.	.	.	.	.	.	.	8r	.	16.ffyy\ 16.dd\yy	.	.	.	.	.	.	.
16ryy	.	.	.	.	.	.	.	.	16fyy\ 16B-\yy	.	16d/yy	.	16a-yy/ 16B-/yy	.	.	.	.	.	16rEyy	.	.	.	.	.	.	.	.	.	.	.	.	.	.	.	.	.	.	.	.
.	.	.	.	.	.	.	.	.	.	.	.	.	.	.	.	.	.	.	.	.	.	.	.	.	.	.	.	.	.	.	.	32ee-yy\JJk 32cc\yy	.	.	.	.	.	.	.
16BB-/yy	.	.	.	.	.	.	.	.	16ryy	.	16ryy	.	16ryy	.	.	.	.	.	16F/yy	.	.	.	.	.	.	.	.	.	.	4ff/ 4b-/	.	16.ddyy\LL 16.b-\yy	.	.	.	.	.	.	.
16ryy	.	.	.	.	.	.	.	.	16fyy\ 16B-\yy	.	16d/yy	.	16a-yy/ 16B-/yy	.	.	.	.	.	16rEyy	.	.	.	.	.	.	.	.	.	.	.	.	.	.	.	.	.	.	.	.
.	.	.	.	.	.	.	.	.	.	.	.	.	.	.	.	.	.	.	.	.	.	.	.	.	.	.	.	.	.	.	.	32ccyy\K 32a-\yy	.	.	.	.	.	.	.
16BB-/yy	.	.	.	.	.	.	.	.	16ryy	.	16ryy	.	16ryy	.	.	.	.	.	16F/yy	.	.	.	.	.	.	.	.	.	.	.	.	16.b-yy\ 16.g\yy	.	.	.	.	.	.	.
16ryy	.	.	.	.	.	.	.	.	16fyy\ 16B-\yy	.	16d/yy	.	16a-yy/ 16B-/yy	.	.	.	.	.	16rEyy	.	.	.	.	.	.	.	.	.	.	.	.	.	.	.	.	.	.	.	.
.	.	.	.	.	.	.	.	.	.	.	.	.	.	.	.	.	.	.	.	.	.	.	.	.	.	.	.	.	.	.	.	32a-yy\JJk 32f\yy	.	.	.	.	.	.	.
=38	=38	=38	=38	=38	=38	=38	=38	=38	=38	=38	=38	=38	=38	=38	=38	=38	=38	=38	=38	=38	=38	=38	=38	=38	=38	=38	=38	=38	=38	=38	=38	=38	=38	=38	=38	=38	=38	=38	=38
8E-\yy	.	2ryy	.	2ryy	.	2ryy	.	.	2ryy	.	2ryy	.	2ryy	.	2ryy	.	2ryy	.	8F/yy	8F\yyyy	.	2ryy	2ryy	.	2ryy	2r	.	2r	.	8ee-/ 8g/	.	8gyy/ 8e-/yy	.	2ryy	.	2ryy	.	2ryy	.
8ryy	.	.	.	.	.	.	.	.	.	.	.	.	.	.	.	.	.	.	8ryy	8ryy	.	.	.	.	.	.	.	.	.	8r	.	8ryy	.	.	.	.	.	.	.
4ryy	.	.	.	.	.	.	.	.	.	.	.	.	.	.	.	.	.	.	4ryy	4ryy	.	.	.	.	.	.	.	.	.	4r	.	4ryy	.	.	.	.	.	.	.
*	*	*	*	*	*	*	*	*	*	*	*	*	*	*	*	*	*	*	*v	*v	*	*	*	*	*	*	*	*	*	*	*	*	*	*	*	*	*	*	*
==	==	==	==	==	==	==	==	==	==	==	==	==	==	==	==	==	==	==	==	==	==	==	==	==	==	==	==	==	==	==	==	==	==	==	==	==	==	==
*-	*-	*-	*-	*-	*-	*-	*-	*-	*-	*-	*-	*-	*-	*-	*-	*-	*-	*-	*-	*-	*-	*-	*-	*-	*-	*-	*-	*-	*-	*-	*-	*-	*-	*-	*-	*-	*-	*-
!!!system-decoration: s1,s2,s3,s4[(s5,s6)]s7,s8,s9,s10,s11,s12,s13[(s14,s15)]s16[(s17,s18,s19)]s20
!!!RDF**kern: > = above
!!!RDF**kern: < = below
!!!RDF**kern: | = vertical stroke
!!!EED: Leszek Kubiak
!!!EEV: 2021-05-20
!!!ENC: Mateusz Solarz
!!!END: 2021-04-26
